;FLAVOR:Marlin
;TIME:9385
;Filament used: 4.86975m
;Layer height: 0.2
;MINX:71.012
;MINY:59.144
;MINZ:0.2
;MAXX:140.428
;MAXY:140.245
;MAXZ:40
;Generated with Cura_SteamEngine 5.4.0
M82 ;absolute extrusion mode
; Ender 3 Custom Start G-code
G92 E0 ; Reset Extruder
G28 ; Home all axes
M104 S175 ; Start heating up the nozzle most of the way
M190 S60 ; Start heating the bed, wait until target temperature reached
M109 S200 ; Finish heating the nozzle
G1 Z2.0 F3000 ; Move Z Axis up little to prevent scratching of Heat Bed
G1 X0.1 Y20 Z0.3 F5000.0 ; Move to start position
G1 X0.1 Y200.0 Z0.3 F1500.0 E15 ; Draw the first line
G1 X0.4 Y200.0 Z0.3 F5000.0 ; Move to side a little
G1 X0.4 Y20 Z0.3 F1500.0 E30 ; Draw the second line
G92 E0 ; Reset Extruder
G1 Z2.0 F3000 ; Move Z Axis up little to prevent scratching of Heat Bed
G1 X5 Y20 Z0.3 F5000.0 ; Move over to prevent blob squish
G92 E0
G92 E0
G1 F1500 E-6.5
;LAYER_COUNT:200
;LAYER:0
M107
G0 F6000 X101.593 Y64.107 Z0.2
;TYPE:SKIRT
G1 F1500 E0
G1 F1200 X102.141 Y63.345 E0.03122
G1 X102.8 Y62.581 E0.06478
G1 X103.5 Y61.904 E0.09716
G1 X104.257 Y61.292 E0.12954
G1 X105.035 Y60.767 E0.16076
G1 X105.919 Y60.279 E0.19434
G1 X106.745 Y59.913 E0.22439
G1 X107.733 Y59.575 E0.25912
G1 X108.611 Y59.36 E0.28919
G1 X109.643 Y59.203 E0.32391
G1 X110.615 Y59.144 E0.3563
G1 X111.517 Y59.167 E0.38631
G1 X112.557 Y59.285 E0.42112
G1 X113.509 Y59.485 E0.45347
G1 X114.45 Y59.77 E0.48618
G1 X115.54 Y60.221 E0.52541
G1 X116.165 Y60.526 E0.54854
G1 X119.65 Y62.318 E0.67888
G1 X120.412 Y62.722 E0.70756
G1 X121.22 Y63.201 E0.73881
G1 X122.041 Y63.79 E0.77241
G1 X122.778 Y64.427 E0.80481
G1 X123.455 Y65.127 E0.8372
G1 X124.047 Y65.856 E0.86844
G1 X124.611 Y66.692 E0.90198
G1 X125.08 Y67.544 E0.93433
G1 X125.473 Y68.435 E0.96671
G1 X125.786 Y69.359 E0.99916
G1 X126.008 Y70.27 E1.03035
G1 X126.159 Y71.272 E1.06405
G1 X126.221 Y72.354 E1.1001
G1 X126.222 Y74.07 E1.15717
G1 X126.272 Y76.563 E1.24011
G1 X126.393 Y79.069 E1.32355
G1 X126.586 Y81.585 E1.40748
G1 X126.85 Y84.113 E1.49202
G1 X127.183 Y86.589 E1.57511
G1 X127.588 Y89.073 E1.65882
G1 X128.058 Y91.524 E1.74183
G1 X128.6 Y93.98 E1.82548
G1 X129.223 Y96.456 E1.9104
G1 X129.894 Y98.837 E1.99268
G1 X130.664 Y101.303 E2.0786
G1 X131.467 Y103.639 E2.16076
G1 X132.346 Y105.98 E2.24393
G1 X133.314 Y108.349 E2.32905
G1 X134.493 Y111.003 E2.42564
G1 X139.009 Y120.748 E2.78287
G1 X139.301 Y121.401 E2.80666
G1 X139.667 Y122.34 E2.84018
G1 X139.832 Y122.835 E2.85754
G1 X140.095 Y123.772 E2.88991
G1 X140.275 Y124.724 E2.92213
G1 X140.383 Y125.74 E2.95611
G1 X140.428 Y126.642 E2.98615
G1 X140.34 Y128.13 E3.03573
G1 X140.28 Y128.588 E3.05109
G1 X140.112 Y129.547 E3.08347
G1 X139.88 Y130.419 E3.11349
G1 X139.539 Y131.387 E3.14762
G1 X139.163 Y132.286 E3.18003
G1 X138.744 Y133.086 E3.21007
G1 X138.186 Y133.972 E3.24489
G1 X137.607 Y134.776 E3.27785
G1 X136.722 Y135.766 E3.32201
G1 X136.337 Y136.145 E3.33998
G1 X135.611 Y136.792 E3.37233
G1 X134.837 Y137.37 E3.40446
G1 X134.275 Y137.726 E3.42658
G1 X133.809 Y138.001 E3.44458
G1 X132.976 Y138.448 E3.47602
G1 X132.344 Y138.745 E3.49925
G1 X131.791 Y138.991 E3.51938
G1 X130.842 Y139.358 E3.55322
G1 X130.4 Y139.506 E3.56872
G1 X129.462 Y139.77 E3.60113
G1 X128.549 Y139.944 E3.63205
G1 X128.001 Y140.011 E3.65041
G1 X127.519 Y140.056 E3.66651
G1 X126.546 Y140.105 E3.69891
G1 X125.643 Y140.071 E3.72897
G1 X124.619 Y139.952 E3.76326
G1 X124.023 Y139.857 E3.78333
G1 X121.046 Y139.295 E3.88409
G1 X118.587 Y138.906 E3.9669
G1 X116.048 Y138.577 E4.05205
G1 X113.548 Y138.326 E4.13562
G1 X111.071 Y138.147 E4.21822
G1 X108.542 Y138.036 E4.30242
G1 X106.007 Y137.996 E4.38674
G1 X103.508 Y138.028 E4.46986
G1 X100.977 Y138.132 E4.55412
G1 X98.48 Y138.306 E4.63737
G1 X95.984 Y138.55 E4.72078
G1 X93.469 Y138.868 E4.8051
G1 X91.031 Y139.247 E4.88716
G1 X87.043 Y140.009 E5.0222
G1 X86.424 Y140.109 E5.04306
G1 X85.967 Y140.168 E5.05838
G1 X85.068 Y140.245 E5.08839
G1 X83.854 Y140.232 E5.12877
G1 X83.317 Y140.197 E5.14667
G1 X82.382 Y140.092 E5.17796
G1 X81.273 Y139.86 E5.21565
G1 X80.784 Y139.73 E5.23248
G1 X79.886 Y139.448 E5.26378
G1 X78.813 Y138.996 E5.30251
G1 X78.364 Y138.777 E5.31912
G1 X77.487 Y138.298 E5.35236
G1 X76.579 Y137.685 E5.3888
G1 X76.142 Y137.356 E5.40699
G1 X75.368 Y136.713 E5.44046
G1 X74.462 Y135.788 E5.48352
G1 X74.135 Y135.409 E5.50017
G1 X73.554 Y134.672 E5.53139
G1 X72.987 Y133.801 E5.56595
G1 X72.713 Y133.334 E5.58396
G1 X72.291 Y132.535 E5.61402
G1 X71.829 Y131.407 E5.65456
G1 X71.665 Y130.93 E5.67133
G1 X71.387 Y129.991 E5.70391
G1 X71.184 Y128.951 E5.73915
G1 X71.104 Y128.382 E5.75826
G1 X71.012 Y127.403 E5.79097
G1 X71.018 Y126.219 E5.83035
G1 X71.049 Y125.693 E5.84787
G1 X71.154 Y124.717 E5.88052
G1 X71.387 Y123.582 E5.91906
G1 X71.522 Y123.072 E5.9366
G1 X71.79 Y122.21 E5.96663
G1 X72.27 Y121.071 E6.00774
G1 X72.501 Y120.6 E6.02519
G1 X72.973 Y119.74 E6.05782
G1 X73.602 Y118.814 E6.09505
G1 X73.909 Y118.409 E6.11195
G1 X74.249 Y117.983 E6.13008
G1 X75.741 Y116.222 E6.20685
G1 X77.318 Y114.257 E6.29065
G1 X78.848 Y112.233 E6.37503
G1 X80.286 Y110.217 E6.4574
G1 X81.72 Y108.083 E6.54291
G1 X83.04 Y105.99 E6.62521
G1 X84.328 Y103.815 E6.70929
G1 X85.547 Y101.616 E6.79291
G1 X86.712 Y99.369 E6.87709
G1 X87.799 Y97.116 E6.96029
G1 X88.837 Y94.8 E7.04471
G1 X89.779 Y92.53 E7.12645
G1 X90.708 Y90.095 E7.21313
G1 X91.523 Y87.767 E7.29517
G1 X92.299 Y85.334 E7.38011
G1 X92.987 Y82.943 E7.46286
G1 X93.815 Y79.722 E7.57347
G1 X94.079 Y78.859 E7.60349
G1 X94.556 Y77.71 E7.64487
G1 X94.912 Y76.984 E7.67176
G1 X96.231 Y74.445 E7.76693
G1 X96.97 Y72.943 E7.8226
G1 X100.737 Y65.616 E8.09662
G1 X101.096 Y64.944 E8.12196
G1 X101.593 Y64.107 E8.15434
G0 F6000 X101.918 Y64.341
G1 F1200 X102.466 Y63.579 E8.18556
G1 X103.079 Y62.868 E8.21678
G1 X103.752 Y62.215 E8.24797
G1 X104.481 Y61.624 E8.27918
G1 X105.259 Y61.099 E8.3104
G1 X106.081 Y60.645 E8.34163
G1 X106.907 Y60.279 E8.37168
G1 X107.828 Y59.964 E8.40405
G1 X108.706 Y59.749 E8.43412
G1 X109.668 Y59.602 E8.46649
G1 X110.605 Y59.544 E8.49771
G1 X111.507 Y59.567 E8.52772
G1 X112.476 Y59.677 E8.56016
G1 X113.394 Y59.868 E8.59134
G1 X114.297 Y60.14 E8.62271
G1 X115.387 Y60.591 E8.66195
G1 X115.982 Y60.882 E8.68398
G1 X119.463 Y62.672 E8.81416
G1 X120.209 Y63.067 E8.84224
G1 X120.987 Y63.526 E8.87228
G1 X121.78 Y64.093 E8.90471
G1 X122.491 Y64.706 E8.93593
G1 X123.144 Y65.379 E8.96712
G1 X123.736 Y66.108 E8.99836
G1 X124.261 Y66.885 E9.02954
G1 X124.714 Y67.706 E9.06073
G1 X125.094 Y68.564 E9.09194
G1 X125.397 Y69.454 E9.12321
G1 X125.619 Y70.365 E9.1544
G1 X125.76 Y71.295 E9.18569
G1 X125.821 Y72.354 E9.22097
G1 X125.822 Y74.07 E9.27804
G1 X125.872 Y76.582 E9.36161
G1 X125.994 Y79.1 E9.44545
G1 X126.188 Y81.627 E9.52975
G1 X126.453 Y84.155 E9.61429
G1 X126.788 Y86.653 E9.69812
G1 X127.195 Y89.148 E9.7822
G1 X127.667 Y91.61 E9.86558
G1 X128.212 Y94.078 E9.94964
G1 X128.838 Y96.565 E10.03494
G1 X129.512 Y98.956 E10.11756
G1 X130.282 Y101.422 E10.20349
G1 X131.093 Y103.78 E10.28643
G1 X131.976 Y106.131 E10.36995
G1 X132.948 Y108.511 E10.45546
G1 X134.13 Y111.171 E10.55227
G1 X138.644 Y120.911 E10.90933
G1 X138.928 Y121.546 E10.93246
G1 X139.294 Y122.485 E10.96598
G1 X139.447 Y122.944 E10.98207
G1 X139.702 Y123.847 E11.01328
G1 X139.877 Y124.766 E11.0444
G1 X139.983 Y125.76 E11.07765
G1 X140.028 Y126.662 E11.10768
G1 X139.943 Y128.079 E11.1549
G1 X139.886 Y128.519 E11.16965
G1 X139.725 Y129.444 E11.20088
G1 X139.493 Y130.316 E11.23089
G1 X139.17 Y131.233 E11.26323
G1 X138.809 Y132.1 E11.29447
G1 X138.39 Y132.9 E11.3245
G1 X137.861 Y133.739 E11.35749
G1 X137.309 Y134.509 E11.389
G1 X136.424 Y135.499 E11.43317
G1 X136.07 Y135.847 E11.44968
G1 X135.371 Y136.472 E11.48087
G1 X134.623 Y137.032 E11.51195
G1 X134.071 Y137.382 E11.53369
G1 X133.62 Y137.649 E11.55112
G1 X132.806 Y138.086 E11.58185
G1 X132.181 Y138.38 E11.60482
G1 X131.646 Y138.618 E11.62429
G1 X130.715 Y138.979 E11.65751
G1 X130.291 Y139.121 E11.67238
G1 X129.387 Y139.377 E11.70363
G1 X128.5 Y139.547 E11.73367
G1 X127.963 Y139.613 E11.75166
G1 X127.499 Y139.657 E11.76716
G1 X126.561 Y139.705 E11.7984
G1 X125.658 Y139.671 E11.82846
G1 X124.682 Y139.557 E11.86114
G1 X124.097 Y139.464 E11.88084
G1 X121.109 Y138.9 E11.98198
G1 X118.638 Y138.509 E12.06519
G1 X116.099 Y138.18 E12.15034
G1 X113.581 Y137.927 E12.23451
G1 X111.089 Y137.747 E12.31761
G1 X108.56 Y137.636 E12.40181
G1 X106.008 Y137.596 E12.4867
G1 X103.492 Y137.628 E12.57039
G1 X100.961 Y137.732 E12.65464
G1 X98.449 Y137.907 E12.73839
G1 X95.934 Y138.153 E12.82244
G1 X93.419 Y138.471 E12.90675
G1 X90.956 Y138.854 E12.98966
G1 X86.979 Y139.614 E13.12433
G1 X86.372 Y139.712 E13.14478
G1 X85.933 Y139.769 E13.1595
G1 X85.034 Y139.846 E13.18951
G1 X83.88 Y139.833 E13.2279
G1 X83.362 Y139.799 E13.24516
G1 X82.427 Y139.694 E13.27646
G1 X81.375 Y139.473 E13.31221
G1 X80.903 Y139.348 E13.32845
G1 X80.041 Y139.079 E13.35848
G1 X78.988 Y138.636 E13.39648
G1 X78.539 Y138.417 E13.41309
G1 X77.711 Y137.967 E13.44444
G1 X76.82 Y137.365 E13.4802
G1 X76.383 Y137.036 E13.4984
G1 X75.654 Y136.433 E13.52986
G1 X74.748 Y135.508 E13.57293
G1 X74.449 Y135.161 E13.58816
G1 X73.889 Y134.453 E13.61819
G1 X73.332 Y133.599 E13.6521
G1 X73.067 Y133.147 E13.66952
G1 X72.645 Y132.348 E13.69958
G1 X72.207 Y131.277 E13.73806
G1 X72.048 Y130.816 E13.75428
G1 X71.78 Y129.914 E13.78558
G1 X71.577 Y128.874 E13.82082
G1 X71.502 Y128.344 E13.83863
G1 X71.412 Y127.405 E13.87
G1 X71.417 Y126.243 E13.90865
G1 X71.447 Y125.735 E13.92558
G1 X71.546 Y124.797 E13.95695
G1 X71.774 Y123.684 E13.99473
G1 X71.904 Y123.191 E14.01169
G1 X72.172 Y122.329 E14.04172
G1 X72.629 Y121.247 E14.08078
G1 X72.852 Y120.792 E14.09763
G1 X73.304 Y119.965 E14.12898
G1 X73.921 Y119.056 E14.16552
G1 X74.222 Y118.659 E14.18209
G1 X74.562 Y118.233 E14.20022
G1 X76.053 Y116.472 E14.27697
G1 X77.63 Y114.507 E14.36077
G1 X79.174 Y112.465 E14.44591
G1 X80.612 Y110.449 E14.52828
G1 X82.052 Y108.306 E14.61415
G1 X83.383 Y106.195 E14.69715
G1 X84.672 Y104.019 E14.78127
G1 X85.897 Y101.81 E14.86528
G1 X87.067 Y99.553 E14.94984
G1 X88.164 Y97.28 E15.03378
G1 X89.202 Y94.964 E15.1182
G1 X90.153 Y92.673 E15.2007
G1 X91.082 Y90.238 E15.28738
G1 X91.901 Y87.899 E15.36981
G1 X92.68 Y85.455 E15.45513
G1 X93.371 Y83.054 E15.53822
G1 X94.198 Y79.839 E15.64864
G1 X94.462 Y78.976 E15.67865
G1 X94.915 Y77.886 E15.71791
G1 X95.267 Y77.168 E15.74451
G1 X96.59 Y74.622 E15.83994
G1 X97.326 Y73.126 E15.89539
G1 X101.09 Y65.804 E16.16922
G1 X101.44 Y65.148 E16.19395
G1 X101.918 Y64.341 E16.22514
G0 F6000 X102.243 Y64.574
G1 F1200 X102.769 Y63.84 E16.25518
G1 X103.358 Y63.155 E16.28523
G1 X104.005 Y62.525 E16.31526
G1 X104.705 Y61.955 E16.34529
G1 X105.453 Y61.449 E16.37532
G1 X106.243 Y61.011 E16.40537
G1 X107.069 Y60.645 E16.43541
G1 X107.923 Y60.353 E16.46543
G1 X108.801 Y60.138 E16.4955
G1 X109.693 Y60.001 E16.52551
G1 X110.595 Y59.944 E16.55558
G1 X111.497 Y59.967 E16.58559
G1 X112.395 Y60.069 E16.61565
G1 X113.279 Y60.251 E16.64566
G1 X114.144 Y60.51 E16.6757
G1 X115.234 Y60.961 E16.71493
G1 X115.799 Y61.238 E16.73586
G1 X119.276 Y63.025 E16.86588
G1 X120.006 Y63.412 E16.89336
G1 X120.784 Y63.871 E16.92341
G1 X121.519 Y64.396 E16.95345
G1 X122.204 Y64.985 E16.9835
G1 X122.834 Y65.632 E17.01353
G1 X123.405 Y66.332 E17.04358
G1 X123.911 Y67.079 E17.07359
G1 X124.349 Y67.869 E17.10363
G1 X124.716 Y68.694 E17.13366
G1 X125.009 Y69.549 E17.16373
G1 X125.224 Y70.426 E17.19376
G1 X125.361 Y71.318 E17.22377
G1 X125.421 Y72.354 E17.25829
G1 X125.422 Y74.07 E17.31536
G1 X125.472 Y76.601 E17.39956
G1 X125.595 Y79.131 E17.48381
G1 X125.79 Y81.669 E17.56847
G1 X126.056 Y84.197 E17.65302
G1 X126.393 Y86.717 E17.73758
G1 X126.802 Y89.223 E17.82203
G1 X127.276 Y91.696 E17.90578
G1 X127.824 Y94.176 E17.99026
G1 X128.453 Y96.674 E18.07593
G1 X129.13 Y99.075 E18.15891
G1 X129.9 Y101.541 E18.24483
G1 X130.719 Y103.921 E18.32855
G1 X131.606 Y106.282 E18.41243
G1 X132.582 Y108.673 E18.49833
G1 X133.767 Y111.339 E18.59536
G1 X138.279 Y121.074 E18.95224
G1 X138.555 Y121.691 E18.97472
G1 X138.921 Y122.63 E19.00824
G1 X139.062 Y123.053 E19.02307
G1 X139.309 Y123.922 E19.05312
G1 X139.479 Y124.809 E19.08315
G1 X139.583 Y125.78 E19.11563
G1 X139.628 Y126.682 E19.14567
G1 X139.546 Y128.028 E19.19052
G1 X139.492 Y128.451 E19.20471
G1 X139.338 Y129.341 E19.23475
G1 X139.106 Y130.213 E19.26476
G1 X138.801 Y131.08 E19.29533
G1 X138.455 Y131.914 E19.32536
G1 X138.036 Y132.714 E19.3554
G1 X137.536 Y133.507 E19.38658
G1 X137.011 Y134.242 E19.41662
G1 X136.126 Y135.232 E19.46079
G1 X135.803 Y135.549 E19.47584
G1 X135.131 Y136.152 E19.50587
G1 X134.408 Y136.694 E19.53592
G1 X133.867 Y137.038 E19.55725
G1 X133.431 Y137.297 E19.57411
G1 X132.636 Y137.724 E19.60413
G1 X132.018 Y138.015 E19.62685
G1 X131.501 Y138.245 E19.64567
G1 X130.588 Y138.6 E19.67825
G1 X130.181 Y138.736 E19.69252
G1 X129.312 Y138.984 E19.72258
G1 X128.425 Y139.154 E19.75262
G1 X127.925 Y139.215 E19.76937
G1 X127.478 Y139.258 E19.78431
G1 X126.576 Y139.305 E19.81435
G1 X125.673 Y139.271 E19.8444
G1 X124.745 Y139.162 E19.87548
G1 X124.171 Y139.071 E19.89481
G1 X121.18 Y138.506 E19.99605
G1 X118.689 Y138.112 E20.07993
G1 X116.15 Y137.783 E20.16508
G1 X113.614 Y137.528 E20.24986
G1 X111.107 Y137.347 E20.33346
G1 X108.578 Y137.236 E20.41765
G1 X106.009 Y137.196 E20.50311
G1 X103.476 Y137.228 E20.58736
G1 X100.945 Y137.332 E20.67162
G1 X98.418 Y137.508 E20.75587
G1 X95.884 Y137.756 E20.84055
G1 X93.369 Y138.074 E20.92487
G1 X90.881 Y138.461 E21.00861
G1 X86.915 Y139.219 E21.14291
G1 X86.32 Y139.315 E21.16296
G1 X85.899 Y139.37 E21.17708
G1 X85 Y139.447 E21.20709
G1 X83.906 Y139.434 E21.24348
G1 X83.406 Y139.401 E21.26014
G1 X82.509 Y139.302 E21.29016
G1 X81.477 Y139.086 E21.32523
G1 X81.022 Y138.966 E21.34088
G1 X80.16 Y138.697 E21.37091
G1 X79.163 Y138.276 E21.40691
G1 X78.729 Y138.065 E21.42296
G1 X77.935 Y137.635 E21.45299
G1 X77.06 Y137.045 E21.48809
G1 X76.637 Y136.727 E21.50569
G1 X75.94 Y136.153 E21.53572
G1 X75.051 Y135.246 E21.57797
G1 X74.763 Y134.913 E21.59261
G1 X74.203 Y134.205 E21.62263
G1 X73.677 Y133.397 E21.6547
G1 X73.421 Y132.96 E21.67154
G1 X72.999 Y132.161 E21.7016
G1 X72.585 Y131.146 E21.73806
G1 X72.431 Y130.702 E21.75369
G1 X72.173 Y129.837 E21.78371
G1 X71.97 Y128.797 E21.81895
G1 X71.9 Y128.305 E21.83548
G1 X71.812 Y127.406 E21.86553
G1 X71.816 Y126.267 E21.90341
G1 X71.845 Y125.776 E21.91977
G1 X71.938 Y124.877 E21.94983
G1 X72.161 Y123.786 E21.98687
G1 X72.286 Y123.31 E22.00324
G1 X72.554 Y122.448 E22.03326
G1 X72.988 Y121.423 E22.07028
G1 X73.203 Y120.983 E22.08657
G1 X73.635 Y120.19 E22.1166
G1 X74.24 Y119.298 E22.15245
G1 X74.535 Y118.909 E22.16869
G1 X74.875 Y118.483 E22.18682
G1 X76.365 Y116.722 E22.26354
G1 X77.942 Y114.757 E22.34734
G1 X79.5 Y112.697 E22.43325
G1 X80.938 Y110.681 E22.51561
G1 X82.384 Y108.529 E22.60184
G1 X83.727 Y106.399 E22.68559
G1 X85.016 Y104.223 E22.76971
G1 X86.247 Y102.004 E22.85411
G1 X87.422 Y99.737 E22.93904
G1 X88.529 Y97.444 E23.02373
G1 X89.567 Y95.128 E23.10814
G1 X90.527 Y92.816 E23.1914
G1 X91.456 Y90.381 E23.27809
G1 X92.279 Y88.031 E23.3609
G1 X93.061 Y85.576 E23.4466
G1 X93.755 Y83.165 E23.53005
G1 X94.581 Y79.956 E23.64026
G1 X94.845 Y79.093 E23.67027
G1 X95.274 Y78.062 E23.70741
G1 X95.622 Y77.352 E23.73371
G1 X96.949 Y74.799 E23.82941
G1 X97.682 Y73.309 E23.88464
G1 X101.443 Y65.992 E24.15827
G1 X101.784 Y65.351 E24.18242
G1 X102.243 Y64.574 E24.21244
G1 F1500 E17.71244
;MESH:NewHinge.stl
G0 F6000 X110.003 Y70.194
G0 X110.778 Y79.767
;TYPE:WALL-INNER
G1 F1500 E24.21244
G1 F1200 X114.422 Y72.674 E24.47766
