;FLAVOR:Marlin
;TIME:11499
;Filament used: 8.27056m
;Layer height: 0.2
;MINX:46.935
;MINY:42.88
;MINZ:0.2
;MAXX:158.259
;MAXY:125.205
;MAXZ:19.4
;Generated with Cura_SteamEngine 5.4.0
M82 ;absolute extrusion mode
; Ender 3 Custom Start G-code
G92 E0 ; Reset Extruder
G28 ; Home all axes
M104 S175 ; Start heating up the nozzle most of the way
M190 S60 ; Start heating the bed, wait until target temperature reached
M109 S200 ; Finish heating the nozzle
G1 Z2.0 F3000 ; Move Z Axis up little to prevent scratching of Heat Bed
G1 X0.1 Y20 Z0.3 F5000.0 ; Move to start position
G1 X0.1 Y200.0 Z0.3 F1500.0 E15 ; Draw the first line
G1 X0.4 Y200.0 Z0.3 F5000.0 ; Move to side a little
G1 X0.4 Y20 Z0.3 F1500.0 E30 ; Draw the second line
G92 E0 ; Reset Extruder
G1 Z2.0 F3000 ; Move Z Axis up little to prevent scratching of Heat Bed
G1 X5 Y20 Z0.3 F5000.0 ; Move over to prevent blob squish
G92 E0
G92 E0
G1 F1500 E-6.5
;LAYER_COUNT:97
;LAYER:0
M107
G0 F6000 X50.513 Y47.662 Z0.2
;TYPE:SKIRT
G1 F1500 E0
G1 F1200 X51.173 Y46.954 E0.03219
G1 X51.744 Y46.431 E0.05795
G1 X52.142 Y46.094 E0.07529
G1 X52.855 Y45.54 E0.10532
G1 X53.471 Y45.13 E0.12994
G1 X53.915 Y44.856 E0.14729
G1 X54.758 Y44.389 E0.17934
G1 X55.402 Y44.095 E0.20289
G1 X55.807 Y43.927 E0.21747
G1 X56.707 Y43.597 E0.24935
G1 X57.219 Y43.447 E0.2671
G1 X57.837 Y43.285 E0.28835
G1 X58.791 Y43.081 E0.3208
G1 X59.77 Y42.961 E0.3536
G1 X60.29 Y42.921 E0.37095
G1 X60.9 Y42.893 E0.39126
G1 X61.636 Y42.881 E0.41574
G1 X143.406 Y42.88 E3.13542
G1 X144.516 Y42.902 E3.17235
G1 X145.504 Y42.964 E3.20527
G1 X146.826 Y43.172 E3.24978
G1 X147.392 Y43.296 E3.26906
G1 X148.295 Y43.536 E3.30013
G1 X149.006 Y43.785 E3.32519
G1 X149.569 Y44.005 E3.34529
G1 X150.46 Y44.402 E3.37774
G1 X151.331 Y44.887 E3.41089
G1 X151.77 Y45.16 E3.42809
G1 X152.541 Y45.687 E3.45915
G1 X153.11 Y46.142 E3.48338
G1 X153.513 Y46.488 E3.50105
G1 X154.217 Y47.15 E3.53319
G1 X154.702 Y47.684 E3.55718
G1 X155.043 Y48.084 E3.57466
G1 X155.614 Y48.82 E3.60565
G1 X156.002 Y49.404 E3.62897
G1 X156.273 Y49.843 E3.64613
G1 X156.727 Y50.658 E3.67716
G1 X157.043 Y51.341 E3.70219
G1 X157.2 Y51.715 E3.71568
G1 X157.542 Y52.648 E3.74873
G1 X157.693 Y53.164 E3.76661
G1 X157.855 Y53.782 E3.78786
G1 X158.059 Y54.736 E3.82031
G1 X158.178 Y55.704 E3.85274
G1 X158.218 Y56.217 E3.86986
G1 X158.247 Y56.84 E3.8906
G1 X158.259 Y57.58 E3.91522
G1 X158.258 Y110.544 E5.67681
G1 X158.24 Y111.421 E5.70598
G1 X158.177 Y112.44 E5.73994
G1 X157.969 Y113.765 E5.78455
G1 X157.846 Y114.329 E5.80375
G1 X157.597 Y115.261 E5.83583
G1 X157.358 Y115.942 E5.85984
G1 X157.138 Y116.505 E5.87994
G1 X156.742 Y117.397 E5.9124
G1 X156.249 Y118.283 E5.94613
G1 X155.973 Y118.726 E5.96349
G1 X155.463 Y119.472 E5.99354
G1 X154.994 Y120.059 E6.01853
G1 X154.647 Y120.462 E6.03622
G1 X153.985 Y121.167 E6.06839
G1 X153.452 Y121.65 E6.09231
G1 X153.061 Y121.984 E6.10941
G1 X152.324 Y122.557 E6.14046
G1 X151.745 Y122.941 E6.16357
G1 X151.299 Y123.216 E6.181
G1 X150.484 Y123.671 E6.21204
G1 X149.793 Y123.99 E6.23736
G1 X149.388 Y124.158 E6.25194
G1 X148.488 Y124.488 E6.28382
G1 X147.978 Y124.637 E6.3015
G1 X147.316 Y124.811 E6.32426
G1 X146.433 Y125.003 E6.35432
G1 X145.133 Y125.151 E6.39783
G1 X144.537 Y125.184 E6.41769
G1 X143.966 Y125.199 E6.43669
G1 X61.793 Y125.205 E9.16977
G1 X60.776 Y125.187 E9.2036
G1 X59.989 Y125.144 E9.22982
G1 X59.648 Y125.111 E9.24121
G1 X58.347 Y124.909 E9.285
G1 X57.793 Y124.787 E9.30387
G1 X56.891 Y124.546 E9.33492
G1 X56.194 Y124.302 E9.35948
G1 X55.628 Y124.081 E9.37969
G1 X54.738 Y123.684 E9.41211
G1 X53.851 Y123.19 E9.44587
G1 X53.41 Y122.915 E9.46316
G1 X52.665 Y122.406 E9.49317
G1 X52.092 Y121.949 E9.51755
G1 X51.687 Y121.601 E9.53531
G1 X50.983 Y120.94 E9.56743
G1 X50.483 Y120.392 E9.5921
G1 X50.147 Y119.995 E9.6094
G1 X49.557 Y119.233 E9.64145
G1 X49.177 Y118.657 E9.6644
G1 X48.905 Y118.213 E9.68172
G1 X48.438 Y117.369 E9.7138
G1 X48.147 Y116.732 E9.7371
G1 X47.98 Y116.329 E9.7516
G1 X47.65 Y115.429 E9.78349
G1 X47.503 Y114.923 E9.80101
G1 X47.329 Y114.261 E9.82378
G1 X47.137 Y113.378 E9.85383
G1 X46.989 Y112.078 E9.89735
G1 X46.956 Y111.482 E9.91721
G1 X46.941 Y110.911 E9.9362
G1 X46.935 Y57.742 E11.70461
G1 X46.946 Y56.859 E11.73398
G1 X46.979 Y56.176 E11.75673
G1 X47.014 Y55.748 E11.77101
G1 X47.132 Y54.798 E11.80285
G1 X47.229 Y54.3 E11.81972
G1 X47.346 Y53.765 E11.83794
G1 X47.601 Y52.816 E11.87062
G1 X47.831 Y52.159 E11.89377
G1 X48.051 Y51.594 E11.91394
G1 X48.446 Y50.701 E11.94642
G1 X48.936 Y49.82 E11.97995
G1 X49.201 Y49.39 E11.99675
G1 X49.727 Y48.618 E12.02782
G1 X50.157 Y48.079 E12.05075
G1 X50.513 Y47.662 E12.06899
G0 F6000 X51.443 Y47.249
G1 F1200 X52.003 Y46.736 E12.09425
G1 X52.387 Y46.41 E12.111
G1 X53.1 Y45.856 E12.14103
G1 X53.681 Y45.47 E12.16423
G1 X54.109 Y45.206 E12.18096
G1 X54.925 Y44.753 E12.212
G1 X55.556 Y44.464 E12.23508
G1 X55.945 Y44.302 E12.2491
G1 X56.819 Y43.981 E12.28007
G1 X57.321 Y43.834 E12.29746
G1 X57.921 Y43.676 E12.3181
G1 X58.84 Y43.478 E12.34937
G1 X59.801 Y43.36 E12.38157
G1 X60.309 Y43.321 E12.39852
G1 X60.907 Y43.293 E12.41843
G1 X61.636 Y43.281 E12.44268
G1 X143.398 Y43.28 E15.16209
G1 X144.492 Y43.301 E15.19849
G1 X145.442 Y43.359 E15.23014
G1 X146.741 Y43.563 E15.27388
G1 X147.29 Y43.683 E15.29257
G1 X148.163 Y43.914 E15.3226
G1 X148.861 Y44.158 E15.3472
G1 X149.407 Y44.371 E15.36669
G1 X150.266 Y44.752 E15.39794
G1 X151.12 Y45.227 E15.43045
G1 X151.544 Y45.49 E15.44704
G1 X152.315 Y46.017 E15.4781
G1 X152.849 Y46.445 E15.50086
G1 X153.239 Y46.78 E15.51796
G1 X153.921 Y47.42 E15.54907
G1 X154.398 Y47.943 E15.57261
G1 X154.727 Y48.329 E15.58948
G1 X155.281 Y49.042 E15.61951
G1 X155.662 Y49.614 E15.64237
G1 X155.924 Y50.038 E15.65895
G1 X156.364 Y50.826 E15.68897
G1 X156.674 Y51.496 E15.71352
G1 X156.831 Y51.87 E15.72701
G1 X157.158 Y52.76 E15.75855
G1 X157.306 Y53.266 E15.77608
G1 X157.464 Y53.866 E15.79672
G1 X157.662 Y54.785 E15.82799
G1 X157.779 Y55.735 E15.85982
G1 X157.818 Y56.236 E15.87654
G1 X157.847 Y56.847 E15.89688
G1 X157.859 Y57.58 E15.92127
G1 X157.858 Y110.536 E17.68259
G1 X157.841 Y111.397 E17.71123
G1 X157.782 Y112.378 E17.74392
G1 X157.578 Y113.68 E17.78775
G1 X157.459 Y114.226 E17.80634
G1 X157.219 Y115.129 E17.83742
G1 X156.985 Y115.797 E17.86096
G1 X156.772 Y116.343 E17.88045
G1 X156.392 Y117.203 E17.91172
G1 X155.909 Y118.072 E17.94479
G1 X155.643 Y118.5 E17.96155
G1 X155.133 Y119.246 E17.99161
G1 X154.691 Y119.798 E18.01513
G1 X154.355 Y120.189 E18.03227
G1 X153.716 Y120.871 E18.06336
G1 X153.193 Y121.346 E18.08686
G1 X152.815 Y121.668 E18.10337
G1 X152.078 Y122.241 E18.13442
G1 X151.535 Y122.601 E18.15609
G1 X151.104 Y122.867 E18.17293
G1 X150.316 Y123.308 E18.20297
G1 X149.639 Y123.621 E18.22778
G1 X149.25 Y123.783 E18.24179
G1 X148.376 Y124.104 E18.27276
G1 X147.876 Y124.25 E18.29008
G1 X147.231 Y124.42 E18.31227
G1 X146.348 Y124.612 E18.34232
G1 X145.111 Y124.752 E18.38373
G1 X144.526 Y124.784 E18.40322
G1 X143.966 Y124.799 E18.42185
G1 X61.8 Y124.805 E21.1547
G1 X60.798 Y124.788 E21.18803
G1 X60.027 Y124.746 E21.21371
G1 X59.709 Y124.716 E21.22434
G1 X58.433 Y124.518 E21.26729
G1 X57.896 Y124.4 E21.28557
G1 X57.023 Y124.168 E21.31562
G1 X56.339 Y123.929 E21.33971
G1 X55.79 Y123.715 E21.35931
G1 X54.932 Y123.334 E21.39054
G1 X54.062 Y122.85 E21.42365
G1 X53.636 Y122.585 E21.44034
G1 X52.891 Y122.076 E21.47035
G1 X52.352 Y121.645 E21.4933
G1 X51.96 Y121.309 E21.51047
G1 X51.278 Y120.67 E21.54156
G1 X50.788 Y120.133 E21.56574
G1 X50.463 Y119.75 E21.58244
G1 X49.891 Y119.012 E21.6135
G1 X49.518 Y118.448 E21.63599
G1 X49.255 Y118.019 E21.65272
G1 X48.802 Y117.203 E21.68377
G1 X48.516 Y116.578 E21.70663
G1 X48.355 Y116.191 E21.72057
G1 X48.034 Y115.317 E21.75154
G1 X47.89 Y114.821 E21.76871
G1 X47.72 Y114.176 E21.7909
G1 X47.528 Y113.293 E21.82095
G1 X47.388 Y112.056 E21.86236
G1 X47.356 Y111.471 E21.88185
G1 X47.341 Y110.911 E21.90048
G1 X47.335 Y57.747 E23.66872
G1 X47.346 Y56.878 E23.69763
G1 X47.378 Y56.208 E23.71994
G1 X47.411 Y55.797 E23.73365
G1 X47.525 Y54.874 E23.76458
G1 X47.62 Y54.385 E23.78115
G1 X47.737 Y53.85 E23.79936
G1 X47.978 Y52.948 E23.83042
G1 X48.204 Y52.304 E23.85312
G1 X48.417 Y51.755 E23.8727
G1 X48.796 Y50.895 E23.90396
G1 X49.276 Y50.03 E23.93686
G1 X49.532 Y49.615 E23.95308
G1 X50.058 Y48.843 E23.98415
G1 X50.462 Y48.338 E24.00566
G1 X50.806 Y47.934 E24.02331
G1 X51.443 Y47.249 E24.05442
G0 F6000 X51.713 Y47.544
G1 F1200 X52.262 Y47.041 E24.07919
G1 X52.632 Y46.726 E24.09535
G1 X53.345 Y46.172 E24.12538
G1 X53.891 Y45.81 E24.14717
G1 X54.303 Y45.556 E24.16327
G1 X55.092 Y45.117 E24.1933
G1 X55.711 Y44.833 E24.21595
G1 X56.083 Y44.677 E24.22937
G1 X56.931 Y44.365 E24.25942
G1 X57.423 Y44.221 E24.27647
G1 X58.006 Y44.067 E24.29653
G1 X58.889 Y43.875 E24.32658
G1 X59.832 Y43.759 E24.35818
G1 X60.328 Y43.721 E24.37473
G1 X60.914 Y43.693 E24.39424
G1 X61.636 Y43.681 E24.41826
G1 X143.391 Y43.68 E27.13744
G1 X144.468 Y43.7 E27.17327
G1 X145.38 Y43.754 E27.20365
G1 X146.656 Y43.954 E27.24661
G1 X147.188 Y44.07 E27.26472
G1 X148.061 Y44.301 E27.29476
G1 X148.716 Y44.531 E27.31785
G1 X149.245 Y44.737 E27.33673
G1 X150.072 Y45.102 E27.36679
G1 X150.91 Y45.567 E27.39867
G1 X151.319 Y45.82 E27.41467
G1 X152.065 Y46.329 E27.4447
G1 X152.589 Y46.749 E27.46704
G1 X152.966 Y47.072 E27.48355
G1 X153.626 Y47.69 E27.51362
G1 X154.094 Y48.202 E27.53669
G1 X154.411 Y48.574 E27.55295
G1 X154.965 Y49.287 E27.58298
G1 X155.322 Y49.824 E27.60443
G1 X155.575 Y50.233 E27.62043
G1 X156.015 Y51.021 E27.65044
G1 X156.305 Y51.651 E27.67351
G1 X156.462 Y52.025 E27.687
G1 X156.774 Y52.872 E27.71702
G1 X156.919 Y53.368 E27.73421
G1 X157.073 Y53.951 E27.75427
G1 X157.265 Y54.834 E27.78432
G1 X157.38 Y55.766 E27.81556
G1 X157.418 Y56.255 E27.83187
G1 X157.447 Y56.854 E27.85181
G1 X157.459 Y57.58 E27.87596
G1 X157.458 Y110.528 E29.63702
G1 X157.442 Y111.374 E29.66517
G1 X157.387 Y112.316 E29.69655
G1 X157.187 Y113.595 E29.73961
G1 X157.072 Y114.124 E29.75761
G1 X156.841 Y114.997 E29.78765
G1 X156.612 Y115.652 E29.81073
G1 X156.406 Y116.182 E29.82964
G1 X156.042 Y117.009 E29.85969
G1 X155.569 Y117.861 E29.8921
G1 X155.313 Y118.274 E29.90826
G1 X154.803 Y119.02 E29.93832
G1 X154.387 Y119.538 E29.96042
G1 X154.063 Y119.916 E29.97698
G1 X153.446 Y120.575 E30.007
G1 X152.934 Y121.042 E30.03005
G1 X152.569 Y121.353 E30.046
G1 X151.857 Y121.908 E30.07603
G1 X151.324 Y122.261 E30.09729
G1 X150.909 Y122.518 E30.11352
G1 X150.121 Y122.959 E30.14356
G1 X149.484 Y123.252 E30.16688
G1 X149.112 Y123.408 E30.1803
G1 X148.264 Y123.72 E30.21035
G1 X147.774 Y123.863 E30.22733
G1 X147.146 Y124.029 E30.24893
G1 X146.263 Y124.221 E30.27899
G1 X145.089 Y124.353 E30.31828
G1 X144.515 Y124.384 E30.3374
G1 X143.966 Y124.399 E30.35566
G1 X61.806 Y124.405 E33.08832
G1 X60.82 Y124.389 E33.12112
G1 X60.064 Y124.348 E33.1463
G1 X59.77 Y124.321 E33.15612
G1 X58.519 Y124.127 E33.19822
G1 X57.999 Y124.013 E33.21593
G1 X57.126 Y123.781 E33.24597
G1 X56.484 Y123.556 E33.2686
G1 X55.952 Y123.349 E33.28759
G1 X55.126 Y122.984 E33.31762
G1 X54.273 Y122.51 E33.35008
G1 X53.862 Y122.255 E33.36617
G1 X53.117 Y121.746 E33.39618
G1 X52.612 Y121.341 E33.41771
G1 X52.233 Y121.017 E33.43429
G1 X51.573 Y120.4 E33.46434
G1 X51.093 Y119.874 E33.48802
G1 X50.779 Y119.505 E33.50414
G1 X50.225 Y118.792 E33.53417
G1 X49.859 Y118.238 E33.55626
G1 X49.605 Y117.825 E33.57238
G1 X49.166 Y117.036 E33.60241
G1 X48.885 Y116.423 E33.62484
G1 X48.73 Y116.053 E33.63818
G1 X48.418 Y115.206 E33.66821
G1 X48.277 Y114.719 E33.68507
G1 X48.111 Y114.091 E33.70667
G1 X47.919 Y113.208 E33.73673
G1 X47.787 Y112.034 E33.77602
G1 X47.756 Y111.46 E33.79514
G1 X47.741 Y110.911 E33.81341
G1 X47.735 Y57.752 E35.58148
G1 X47.746 Y56.897 E35.60992
G1 X47.777 Y56.239 E35.63183
G1 X47.808 Y55.846 E35.64494
G1 X47.918 Y54.95 E35.67497
G1 X48.011 Y54.47 E35.69123
G1 X48.124 Y53.953 E35.70883
G1 X48.356 Y53.08 E35.73888
G1 X48.577 Y52.448 E35.76114
G1 X48.783 Y51.916 E35.78012
G1 X49.146 Y51.089 E35.81016
G1 X49.616 Y50.24 E35.84243
G1 X49.863 Y49.84 E35.85807
G1 X50.371 Y49.093 E35.88812
G1 X50.767 Y48.597 E35.90923
G1 X51.099 Y48.206 E35.92629
G1 X51.713 Y47.544 E35.95632
G1 F1500 E29.45632
;MESH:Top.3mf
G0 F6000 X61.032 Y53.22
G0 X144.087 Y113.603
;TYPE:WALL-INNER
G1 F1500 E35.95632
G1 F1200 X144.495 Y113.571 E35.96993
G1 X144.878 Y113.479 E35.98303
G1 X145.263 Y113.32 E35.99688
G1 X145.608 Y113.109 E36.01034
G1 X145.907 Y112.852 E36.02345
G1 X146.164 Y112.553 E36.03656
G1 X146.375 Y112.208 E36.05001
G1 X146.534 Y111.823 E36.06387
G1 X146.626 Y111.439 E36.077
G1 X146.659 Y111.032 E36.09058
G1 X146.659 Y57.055 E37.88586
G1 X146.626 Y56.645 E37.89954
G1 X146.534 Y56.262 E37.91265
G1 X146.375 Y55.877 E37.9265
G1 X146.164 Y55.532 E37.93995
G1 X145.907 Y55.233 E37.95306
G1 X145.608 Y54.976 E37.96618
G1 X145.263 Y54.765 E37.97963
G1 X144.878 Y54.606 E37.99348
G1 X144.495 Y54.514 E38.00658
G1 X144.084 Y54.48 E38.0203
G1 X61.11 Y54.481 E40.78003
G1 X60.7 Y54.514 E40.79371
G1 X60.317 Y54.606 E40.80681
G1 X59.932 Y54.765 E40.82066
G1 X59.587 Y54.976 E40.83411
G1 X59.288 Y55.233 E40.84723
G1 X59.031 Y55.532 E40.86034
G1 X58.82 Y55.877 E40.87379
G1 X58.661 Y56.262 E40.88765
G1 X58.569 Y56.646 E40.90078
G1 X58.535 Y57.055 E40.91443
G1 X58.537 Y111.032 E42.70971
G1 X58.569 Y111.44 E42.72332
G1 X58.661 Y111.823 E42.73642
G1 X58.82 Y112.208 E42.75028
G1 X59.031 Y112.553 E42.76373
G1 X59.288 Y112.852 E42.77684
G1 X59.587 Y113.109 E42.78996
G1 X59.932 Y113.32 E42.80341
G1 X60.317 Y113.479 E42.81726
G1 X60.7 Y113.571 E42.83036
G1 X61.112 Y113.605 E42.84411
G1 X144.087 Y113.603 E45.60387
G0 F6000 X144.103 Y114.003
;TYPE:WALL-OUTER
G1 F1200 X144.558 Y113.967 E45.61905
G1 X145.002 Y113.861 E45.63423
G1 X145.445 Y113.678 E45.65018
G1 X145.844 Y113.433 E45.66575
G1 X146.191 Y113.136 E45.68094
G1 X146.488 Y112.789 E45.69613
G1 X146.733 Y112.39 E45.7117
G1 X146.916 Y111.947 E45.72765
G1 X147.022 Y111.503 E45.74283
G1 X147.059 Y111.048 E45.75801
G1 X147.059 Y57.039 E47.55436
G1 X147.022 Y56.582 E47.56961
G1 X146.916 Y56.138 E47.58479
G1 X146.733 Y55.695 E47.60073
G1 X146.488 Y55.296 E47.61631
G1 X146.191 Y54.949 E47.6315
G1 X145.844 Y54.652 E47.64669
G1 X145.445 Y54.407 E47.66226
G1 X145.002 Y54.224 E47.6782
G1 X144.558 Y54.118 E47.69339
G1 X144.1 Y54.08 E47.70867
G1 X61.094 Y54.081 E50.46946
G1 X60.637 Y54.118 E50.48471
G1 X60.193 Y54.224 E50.4999
G1 X59.75 Y54.407 E50.51584
G1 X59.351 Y54.652 E50.53141
G1 X59.004 Y54.949 E50.5466
G1 X58.707 Y55.296 E50.56179
G1 X58.462 Y55.695 E50.57737
G1 X58.279 Y56.138 E50.59331
G1 X58.173 Y56.582 E50.60849
G1 X58.135 Y57.039 E50.62374
G1 X58.137 Y111.048 E52.42009
G1 X58.173 Y111.503 E52.43527
G1 X58.279 Y111.947 E52.45045
G1 X58.462 Y112.39 E52.46639
G1 X58.707 Y112.789 E52.48197
G1 X59.004 Y113.136 E52.49716
G1 X59.351 Y113.433 E52.51235
G1 X59.75 Y113.678 E52.52792
G1 X60.193 Y113.861 E52.54386
G1 X60.637 Y113.967 E52.55905
G1 X61.096 Y114.005 E52.57437
G1 X144.103 Y114.003 E55.33519
G0 F6000 X144.448 Y113.213
;TYPE:SKIN
G1 F1200 X144.06 Y113.243 E55.34813
G1 X61.116 Y113.245 E58.10686
G1 X60.759 Y113.215 E58.11878
G1 X60.44 Y113.138 E58.12969
G1 X60.092 Y112.995 E58.14221
G1 X59.799 Y112.813 E58.15368
G1 X59.544 Y112.596 E58.16482
G1 X59.327 Y112.341 E58.17595
G1 X59.142 Y112.043 E58.18762
G1 X59.003 Y111.707 E58.19971
G1 X58.927 Y111.393 E58.21046
G1 X58.897 Y111.005 E58.2234
G1 X58.895 Y57.056 E60.01775
G1 X58.925 Y56.705 E60.02947
G1 X59.002 Y56.385 E60.04042
G1 X59.145 Y56.038 E60.0529
G1 X59.325 Y55.746 E60.06431
G1 X59.544 Y55.489 E60.07554
G1 X59.801 Y55.27 E60.08677
