;FLAVOR:Marlin
;TIME:11318
;Filament used: 8.00177m
;Layer height: 0.2
;MINX:56.796
;MINY:61.8
;MINZ:0.2
;MAXX:168.987
;MAXY:144.992
;MAXZ:17
;Generated with Cura_SteamEngine 5.4.0
M82 ;absolute extrusion mode
; Ender 3 Custom Start G-code
G92 E0 ; Reset Extruder
G28 ; Home all axes
M104 S175 ; Start heating up the nozzle most of the way
M190 S60 ; Start heating the bed, wait until target temperature reached
M109 S200 ; Finish heating the nozzle
G1 Z2.0 F3000 ; Move Z Axis up little to prevent scratching of Heat Bed
G1 X0.1 Y20 Z0.3 F5000.0 ; Move to start position
G1 X0.1 Y200.0 Z0.3 F1500.0 E15 ; Draw the first line
G1 X0.4 Y200.0 Z0.3 F5000.0 ; Move to side a little
G1 X0.4 Y20 Z0.3 F1500.0 E30 ; Draw the second line
G92 E0 ; Reset Extruder
G1 Z2.0 F3000 ; Move Z Axis up little to prevent scratching of Heat Bed
G1 X5 Y20 Z0.3 F5000.0 ; Move over to prevent blob squish
G92 E0
G92 E0
G1 F1500 E-6.5
;LAYER_COUNT:85
;LAYER:0
M107
G0 F6000 X61.355 Y65.807 Z0.2
;TYPE:SKIRT
G1 F1500 E0
G1 F1200 X61.882 Y65.343 E0.02335
G1 X62.345 Y64.961 E0.04332
G1 X63.117 Y64.381 E0.07543
G1 X63.749 Y63.977 E0.10038
G1 X64.21 Y63.706 E0.11817
G1 X65.049 Y63.262 E0.14974
G1 X65.571 Y63.03 E0.16874
G1 X66.102 Y62.812 E0.18783
G1 X66.979 Y62.495 E0.21885
G1 X67.669 Y62.301 E0.24269
G1 X68.151 Y62.184 E0.25918
G1 X69.083 Y62.001 E0.29077
G1 X69.646 Y61.93 E0.30965
G1 X70.341 Y61.862 E0.33287
G1 X71.207 Y61.812 E0.36172
G1 X71.966 Y61.8 E0.38697
G1 X153.908 Y61.803 E3.11237
G1 X154.825 Y61.823 E3.14288
G1 X155.605 Y61.868 E3.16887
G1 X156.074 Y61.913 E3.18454
G1 X157.032 Y62.047 E3.21671
G1 X157.718 Y62.199 E3.24008
G1 X158.309 Y62.351 E3.26038
G1 X159.231 Y62.633 E3.29245
G1 X159.883 Y62.888 E3.31573
G1 X160.39 Y63.107 E3.3341
G1 X161.253 Y63.526 E3.36601
G1 X161.741 Y63.806 E3.38472
G1 X162.245 Y64.114 E3.40437
G1 X163.019 Y64.636 E3.43542
G1 X163.6 Y65.095 E3.46004
G1 X163.993 Y65.43 E3.47722
G1 X164.675 Y66.062 E3.50814
G1 X165.051 Y66.461 E3.52638
G1 X165.544 Y67.013 E3.551
G1 X166.139 Y67.743 E3.58232
G1 X166.804 Y68.742 E3.62223
G1 X167.082 Y69.215 E3.64048
G1 X167.525 Y70.053 E3.67201
G1 X167.748 Y70.551 E3.69016
G1 X167.931 Y70.991 E3.70601
G1 X168.241 Y71.84 E3.73607
G1 X168.401 Y72.388 E3.75506
G1 X168.581 Y73.077 E3.77874
G1 X168.783 Y74.029 E3.81111
G1 X168.901 Y74.985 E3.84315
G1 X168.946 Y75.561 E3.86236
G1 X168.975 Y76.181 E3.88301
G1 X168.987 Y76.911 E3.90729
G1 X168.984 Y129.906 E5.66991
G1 X168.965 Y130.799 E5.69962
G1 X168.924 Y131.537 E5.7242
G1 X168.884 Y131.973 E5.73877
G1 X168.755 Y132.926 E5.77075
G1 X168.638 Y133.483 E5.78968
G1 X168.525 Y133.962 E5.80605
G1 X168.271 Y134.857 E5.83699
G1 X168.078 Y135.395 E5.85601
G1 X167.819 Y136.056 E5.87962
G1 X167.423 Y136.947 E5.91205
G1 X166.952 Y137.795 E5.94431
G1 X166.639 Y138.303 E5.96416
G1 X166.132 Y139.05 E5.99418
G1 X165.666 Y139.639 E6.01916
G1 X165.346 Y140.014 E6.03556
G1 X164.691 Y140.716 E6.06749
G1 X164.306 Y141.074 E6.08498
G1 X163.787 Y141.535 E6.10807
G1 X163.031 Y142.146 E6.1404
G1 X162.268 Y142.663 E6.17105
G1 X161.758 Y142.976 E6.19096
G1 X160.914 Y143.443 E6.22304
G1 X160.269 Y143.738 E6.24663
G1 X159.818 Y143.927 E6.26289
G1 X158.97 Y144.238 E6.29293
G1 X158.393 Y144.406 E6.31292
G1 X157.708 Y144.585 E6.33647
G1 X156.756 Y144.788 E6.36885
G1 X155.855 Y144.901 E6.39905
G1 X155.281 Y144.948 E6.4182
G1 X154.594 Y144.98 E6.44108
G1 X153.829 Y144.992 E6.46652
G1 X71.884 Y144.989 E9.19203
G1 X70.981 Y144.97 E9.22207
G1 X70.175 Y144.923 E9.24892
G1 X69.733 Y144.88 E9.26369
G1 X68.838 Y144.754 E9.29375
G1 X68.259 Y144.633 E9.31343
G1 X67.782 Y144.517 E9.32975
G1 X66.863 Y144.252 E9.36156
G1 X66.395 Y144.083 E9.37811
G1 X65.749 Y143.831 E9.40118
G1 X64.891 Y143.452 E9.43237
G1 X64.005 Y142.964 E9.46602
G1 X63.49 Y142.646 E9.48615
G1 X62.716 Y142.12 E9.51727
G1 X62.11 Y141.636 E9.54307
G1 X61.651 Y141.242 E9.56319
G1 X60.993 Y140.624 E9.59321
G1 X60.462 Y140.043 E9.61939
G1 X60.044 Y139.549 E9.64091
G1 X59.471 Y138.806 E9.67212
G1 X58.944 Y137.989 E9.70446
G1 X58.662 Y137.502 E9.72318
G1 X58.214 Y136.643 E9.7554
G1 X57.801 Y135.669 E9.79059
G1 X57.474 Y134.76 E9.82272
G1 X57.284 Y134.065 E9.84668
G1 X57.144 Y133.479 E9.86672
G1 X56.973 Y132.592 E9.89676
G1 X56.883 Y131.808 E9.92301
G1 X56.837 Y131.219 E9.94266
G1 X56.808 Y130.604 E9.96314
G1 X56.796 Y129.881 E9.98719
G1 X56.798 Y113.897 E10.51882
G1 X56.809 Y113.166 E10.54313
G1 X56.846 Y112.414 E10.56818
G1 X57.08 Y109.704 E10.65865
G1 X57.22 Y107.198 E10.74213
G1 X57.293 Y104.66 E10.82658
G1 X57.293 Y102.149 E10.91009
G1 X57.222 Y99.637 E10.99368
G1 X57.081 Y97.139 E11.07689
G1 X56.851 Y94.445 E11.16682
G1 X56.813 Y93.695 E11.1918
G1 X56.798 Y92.788 E11.22197
G1 X56.799 Y76.887 E11.75084
G1 X56.818 Y75.992 E11.78061
G1 X56.858 Y75.255 E11.80516
G1 X56.898 Y74.816 E11.81982
G1 X57.023 Y73.893 E11.8508
G1 X57.153 Y73.268 E11.87203
G1 X57.302 Y72.646 E11.89331
G1 X57.562 Y71.744 E11.92453
G1 X57.893 Y70.882 E11.95524
G1 X58.11 Y70.38 E11.97343
G1 X58.518 Y69.542 E12.00443
G1 X58.82 Y69.017 E12.02458
G1 X59.161 Y68.463 E12.04621
G1 X59.718 Y67.645 E12.07913
G1 X60.287 Y66.944 E12.10916
G1 X60.657 Y66.526 E12.12772
G1 X61.355 Y65.807 E12.16105
G0 F6000 X61.62 Y66.107
G1 F1200 X62.137 Y65.651 E12.18398
G1 X62.586 Y65.28 E12.20335
G1 X63.332 Y64.718 E12.23442
G1 X63.952 Y64.322 E12.25889
G1 X64.397 Y64.06 E12.27606
G1 X65.236 Y63.616 E12.30763
G1 X65.723 Y63.4 E12.32535
G1 X66.238 Y63.188 E12.34388
G1 X67.087 Y62.88 E12.37392
G1 X67.764 Y62.69 E12.3973
G1 X68.228 Y62.577 E12.41319
G1 X69.16 Y62.394 E12.44478
G1 X69.685 Y62.328 E12.46238
G1 X70.364 Y62.261 E12.48507
G1 X71.213 Y62.212 E12.51335
G1 X71.966 Y62.2 E12.5384
G1 X153.9 Y62.203 E15.26354
G1 X154.802 Y62.222 E15.29355
G1 X155.567 Y62.266 E15.31903
G1 X156.019 Y62.309 E15.33413
G1 X156.945 Y62.438 E15.36523
G1 X157.631 Y62.59 E15.3886
G1 X158.192 Y62.734 E15.40786
G1 X159.085 Y63.006 E15.43891
G1 X159.737 Y63.261 E15.4622
G1 X160.216 Y63.467 E15.47954
G1 X161.054 Y63.873 E15.51051
G1 X161.532 Y64.147 E15.52884
G1 X162.021 Y64.446 E15.5479
G1 X162.795 Y64.968 E15.57895
G1 X163.341 Y65.4 E15.60211
G1 X163.721 Y65.723 E15.61869
G1 X164.384 Y66.337 E15.64875
G1 X164.753 Y66.728 E15.66663
G1 X165.234 Y67.266 E15.69063
G1 X165.806 Y67.965 E15.72067
G1 X166.459 Y68.945 E15.75984
G1 X166.728 Y69.402 E15.77748
G1 X167.171 Y70.24 E15.80901
G1 X167.379 Y70.705 E15.82595
G1 X167.555 Y71.128 E15.84119
G1 X167.865 Y71.977 E15.87125
G1 X168.014 Y72.489 E15.88899
G1 X168.19 Y73.161 E15.91209
G1 X168.386 Y74.078 E15.94328
G1 X168.502 Y75.016 E15.97471
G1 X168.546 Y75.58 E15.99353
G1 X168.575 Y76.188 E16.01377
G1 X168.587 Y76.911 E16.03783
G1 X168.584 Y129.898 E17.80018
G1 X168.566 Y130.777 E17.82942
G1 X168.526 Y131.501 E17.85354
G1 X168.488 Y131.92 E17.86753
G1 X168.364 Y132.844 E17.89854
G1 X168.249 Y133.391 E17.91713
G1 X168.14 Y133.853 E17.93292
G1 X167.894 Y134.722 E17.96296
G1 X167.705 Y135.249 E17.98158
G1 X167.453 Y135.894 E18.00461
G1 X167.073 Y136.753 E18.03585
G1 X166.612 Y137.585 E18.06749
G1 X166.308 Y138.078 E18.08675
G1 X165.801 Y138.825 E18.11678
G1 X165.362 Y139.379 E18.14029
G1 X165.053 Y139.741 E18.15612
G1 X164.418 Y140.423 E18.18711
G1 X164.04 Y140.775 E18.20429
G1 X163.535 Y141.224 E18.22677
G1 X162.806 Y141.815 E18.25798
G1 X162.059 Y142.322 E18.28801
G1 X161.564 Y142.626 E18.30733
G1 X160.748 Y143.079 E18.33837
G1 X160.114 Y143.369 E18.36156
G1 X159.68 Y143.551 E18.37721
G1 X158.832 Y143.862 E18.40725
G1 X158.292 Y144.019 E18.42596
G1 X157.624 Y144.194 E18.44893
G1 X156.706 Y144.391 E18.48015
G1 X155.822 Y144.502 E18.50979
G1 X155.262 Y144.548 E18.52848
G1 X154.588 Y144.58 E18.55092
G1 X153.829 Y144.592 E18.57617
G1 X71.892 Y144.589 E21.3014
G1 X71.004 Y144.571 E21.33094
G1 X70.213 Y144.525 E21.3573
G1 X69.789 Y144.484 E21.37146
G1 X68.894 Y144.358 E21.40152
G1 X68.353 Y144.244 E21.41991
G1 X67.893 Y144.133 E21.43565
G1 X66.999 Y143.876 E21.46659
G1 X66.54 Y143.71 E21.48283
G1 X65.911 Y143.465 E21.50528
G1 X65.053 Y143.086 E21.53647
G1 X64.215 Y142.623 E21.56832
G1 X63.715 Y142.315 E21.58785
G1 X62.941 Y141.789 E21.61898
G1 X62.371 Y141.333 E21.64325
G1 X61.925 Y140.95 E21.66281
G1 X61.267 Y140.332 E21.69283
G1 X60.767 Y139.784 E21.7175
G1 X60.361 Y139.305 E21.73839
G1 X59.788 Y138.562 E21.7696
G1 X59.29 Y137.788 E21.80021
G1 X59.016 Y137.316 E21.81836
G1 X58.582 Y136.487 E21.84948
G1 X58.177 Y135.533 E21.88395
G1 X57.86 Y134.654 E21.91503
G1 X57.673 Y133.972 E21.93855
G1 X57.537 Y133.403 E21.95801
G1 X57.366 Y132.516 E21.98806
G1 X57.282 Y131.777 E22.01279
G1 X57.237 Y131.2 E22.03204
G1 X57.208 Y130.597 E22.05212
G1 X57.196 Y129.881 E22.07594
G1 X57.198 Y113.903 E22.60737
G1 X57.208 Y113.186 E22.63122
G1 X57.245 Y112.448 E22.6558
G1 X57.478 Y109.738 E22.74626
G1 X57.62 Y107.21 E22.83048
G1 X57.693 Y104.672 E22.91493
G1 X57.693 Y102.149 E22.99884
G1 X57.622 Y99.626 E23.08279
G1 X57.48 Y97.105 E23.16677
G1 X57.25 Y94.411 E23.2567
G1 X57.213 Y93.688 E23.28078
G1 X57.198 Y92.788 E23.31072
G1 X57.199 Y76.895 E23.83932
G1 X57.217 Y76.014 E23.86863
G1 X57.256 Y75.291 E23.89271
G1 X57.294 Y74.87 E23.90677
G1 X57.419 Y73.947 E23.93775
G1 X57.542 Y73.361 E23.95767
G1 X57.687 Y72.756 E23.97836
G1 X57.936 Y71.887 E24.00842
G1 X58.26 Y71.041 E24.03856
G1 X58.47 Y70.555 E24.05616
G1 X58.878 Y69.717 E24.08716
G1 X59.161 Y69.227 E24.10598
G1 X59.502 Y68.673 E24.12762
G1 X60.028 Y67.897 E24.1588
G1 X60.587 Y67.209 E24.18829
G1 X60.957 Y66.791 E24.20685
G1 X61.62 Y66.107 E24.23854
G0 F6000 X61.885 Y66.407
G1 F1200 X62.392 Y65.959 E24.26104
G1 X62.827 Y65.599 E24.27982
G1 X63.547 Y65.055 E24.30983
G1 X64.155 Y64.667 E24.33382
G1 X64.6 Y64.405 E24.351
G1 X65.398 Y63.982 E24.38104
G1 X65.876 Y63.77 E24.39843
G1 X66.374 Y63.564 E24.41635
G1 X67.223 Y63.256 E24.44639
G1 X67.859 Y63.079 E24.46835
G1 X68.323 Y62.966 E24.48423
G1 X69.21 Y62.791 E24.5143
G1 X69.725 Y62.726 E24.53157
G1 X70.387 Y62.66 E24.5537
G1 X71.219 Y62.612 E24.58142
G1 X71.966 Y62.6 E24.60626
G1 X153.892 Y62.603 E27.33113
G1 X154.779 Y62.621 E27.36064
G1 X155.529 Y62.664 E27.38563
G1 X155.964 Y62.705 E27.40016
G1 X156.859 Y62.829 E27.43021
G1 X157.532 Y62.978 E27.45314
G1 X158.076 Y63.117 E27.47181
G1 X158.94 Y63.379 E27.50184
G1 X159.579 Y63.628 E27.52465
G1 X160.042 Y63.827 E27.54141
G1 X160.855 Y64.22 E27.57145
G1 X161.324 Y64.489 E27.58943
G1 X161.798 Y64.778 E27.60789
G1 X162.547 Y65.282 E27.63792
G1 X163.082 Y65.705 E27.66061
G1 X163.449 Y66.016 E27.67661
G1 X164.112 Y66.63 E27.70666
G1 X164.455 Y66.995 E27.72332
G1 X164.924 Y67.519 E27.74671
G1 X165.496 Y68.218 E27.77675
G1 X166.114 Y69.148 E27.81389
G1 X166.383 Y69.605 E27.83153
G1 X166.806 Y70.403 E27.86157
G1 X167.01 Y70.859 E27.87818
G1 X167.179 Y71.265 E27.89281
G1 X167.489 Y72.114 E27.92287
G1 X167.627 Y72.591 E27.93939
G1 X167.799 Y73.245 E27.96188
G1 X167.989 Y74.127 E27.99189
G1 X168.103 Y75.047 E28.02272
G1 X168.146 Y75.599 E28.04113
G1 X168.175 Y76.195 E28.06098
G1 X168.187 Y76.911 E28.0848
G1 X168.184 Y129.89 E29.84689
G1 X168.167 Y130.755 E29.87566
G1 X168.128 Y131.465 E29.89931
G1 X168.092 Y131.867 E29.91274
G1 X167.972 Y132.762 E29.94277
G1 X167.86 Y133.299 E29.96102
G1 X167.755 Y133.744 E29.97622
G1 X167.509 Y134.613 E30.00626
G1 X167.332 Y135.104 E30.02362
G1 X167.087 Y135.733 E30.04607
G1 X166.723 Y136.559 E30.0761
G1 X166.271 Y137.375 E30.10712
G1 X165.977 Y137.853 E30.12579
G1 X165.47 Y138.6 E30.15581
G1 X165.057 Y139.12 E30.1779
G1 X164.76 Y139.469 E30.19314
G1 X164.145 Y140.13 E30.22317
G1 X163.774 Y140.476 E30.24004
G1 X163.282 Y140.914 E30.26195
G1 X162.582 Y141.484 E30.29198
G1 X161.849 Y141.981 E30.32143
G1 X161.37 Y142.276 E30.34014
G1 X160.581 Y142.715 E30.37017
G1 X159.96 Y143 E30.3929
G1 X159.542 Y143.175 E30.40797
G1 X158.694 Y143.486 E30.43801
G1 X158.191 Y143.632 E30.45543
G1 X157.539 Y143.803 E30.47785
G1 X156.656 Y143.994 E30.5079
G1 X155.789 Y144.103 E30.53696
G1 X155.243 Y144.148 E30.55519
G1 X154.582 Y144.18 E30.5772
G1 X153.829 Y144.192 E30.60224
G1 X71.9 Y144.189 E33.32721
G1 X71.027 Y144.172 E33.35626
G1 X70.251 Y144.127 E33.38211
G1 X69.845 Y144.088 E33.39568
G1 X68.95 Y143.962 E33.42574
G1 X68.446 Y143.855 E33.44287
G1 X68.003 Y143.749 E33.45802
G1 X67.135 Y143.5 E33.48806
G1 X66.685 Y143.337 E33.50398
G1 X66.072 Y143.099 E33.52585
G1 X65.246 Y142.736 E33.55586
G1 X64.424 Y142.282 E33.58709
G1 X63.939 Y141.984 E33.60602
G1 X63.191 Y141.477 E33.63608
G1 X62.632 Y141.03 E33.65988
G1 X62.199 Y140.658 E33.67887
G1 X61.541 Y140.04 E33.70889
G1 X61.072 Y139.525 E33.73206
G1 X60.677 Y139.06 E33.75235
G1 X60.124 Y138.346 E33.78239
G1 X59.636 Y137.587 E33.8124
G1 X59.37 Y137.13 E33.82999
G1 X58.95 Y136.33 E33.86004
G1 X58.553 Y135.397 E33.89377
G1 X58.246 Y134.548 E33.92379
G1 X58.062 Y133.879 E33.94687
G1 X57.93 Y133.327 E33.96575
G1 X57.759 Y132.44 E33.99579
G1 X57.681 Y131.746 E34.01902
G1 X57.637 Y131.18 E34.0379
G1 X57.608 Y130.59 E34.05755
G1 X57.596 Y129.881 E34.08114
G1 X57.598 Y113.909 E34.61237
G1 X57.608 Y113.206 E34.63575
G1 X57.644 Y112.482 E34.65986
G1 X57.876 Y109.772 E34.75033
G1 X58.02 Y107.222 E34.83527
G1 X58.093 Y104.684 E34.91972
G1 X58.093 Y102.149 E35.00404
G1 X58.022 Y99.615 E35.08835
G1 X57.879 Y97.071 E35.1731
G1 X57.649 Y94.377 E35.26303
G1 X57.613 Y93.681 E35.28621
G1 X57.598 Y92.788 E35.31591
G1 X57.599 Y76.903 E35.84425
G1 X57.616 Y76.035 E35.87313
G1 X57.654 Y75.327 E35.89671
G1 X57.69 Y74.924 E35.91017
G1 X57.811 Y74.029 E35.9402
G1 X57.931 Y73.454 E35.95974
G1 X58.072 Y72.866 E35.97985
G1 X58.321 Y71.997 E36.00992
G1 X58.627 Y71.2 E36.03831
G1 X58.83 Y70.73 E36.05534
G1 X59.225 Y69.917 E36.0854
G1 X59.502 Y69.436 E36.10387
G1 X59.833 Y68.897 E36.1249
G1 X60.339 Y68.149 E36.15494
G1 X60.887 Y67.474 E36.18386
G1 X61.257 Y67.056 E36.20242
G1 X61.885 Y66.407 E36.23246
G1 F1500 E29.73246
;MESH:Bottom.3mf
G0 F6000 X110.521 Y102.763
G0 X112.887 Y105.666
;TYPE:WALL-INNER
G1 F1500 E36.23246
G1 F1200 X112.301 Y105.59 E36.25211
G1 X111.757 Y105.363 E36.27172
G1 X111.284 Y105.001 E36.29153
G1 X110.916 Y104.514 E36.31183
G1 X110.694 Y103.964 E36.33156
G1 X110.622 Y103.386 E36.35093
G1 X110.699 Y102.8 E36.37059
G1 X110.929 Y102.256 E36.39024
G1 X111.287 Y101.789 E36.40981
G1 X111.758 Y101.428 E36.42954
G1 X112.318 Y101.199 E36.44967
G1 X112.897 Y101.126 E36.46908
G1 X113.483 Y101.202 E36.48873
G1 X114.027 Y101.429 E36.50834
G1 X114.501 Y101.792 E36.52819
G1 X114.857 Y102.266 E36.54791
G1 X115.08 Y102.801 E36.56719
G1 X115.162 Y103.396 E36.58717
G1 X115.08 Y103.991 E36.60714
G1 X114.861 Y104.528 E36.62643
G1 X114.497 Y105.003 E36.64633
G1 X114.026 Y105.364 E36.66607
G1 X113.466 Y105.593 E36.6862
G1 X112.887 Y105.666 E36.70561
G1 F1500 E30.20561
G0 F6000 X113.319 Y105.712
G0 X111.677 Y105.525
G0 X111.677 Y133.191
G0 X71.429 Y133.391
G1 F1500 E36.70561
G1 F1200 X154.381 Y133.391 E39.4646
G1 X154.858 Y133.353 E39.48052
G1 X155.313 Y133.244 E39.49608
G1 X155.749 Y133.063 E39.51178
G1 X156.157 Y132.814 E39.52768
G1 X156.505 Y132.515 E39.54294
G1 X156.812 Y132.158 E39.5586
G1 X157.056 Y131.759 E39.57415
G1 X157.241 Y131.311 E39.59027
G1 X157.347 Y130.874 E39.60523
G1 X157.386 Y130.36 E39.62237
G1 X157.386 Y76.407 E41.41686
G1 X157.349 Y75.93 E41.43277
G1 X157.241 Y75.48 E41.44816
G1 X157.056 Y75.032 E41.46428
G1 X156.812 Y74.634 E41.47981
G1 X156.505 Y74.277 E41.49547
G1 X156.157 Y73.978 E41.51073
G1 X155.743 Y73.725 E41.52687
G1 X155.317 Y73.548 E41.54221
G1 X154.869 Y73.441 E41.55753
G1 X154.368 Y73.402 E41.57425
G1 X71.403 Y73.401 E44.33367
G1 X70.921 Y73.439 E44.34975
G1 X70.468 Y73.548 E44.36525
G1 X70.04 Y73.725 E44.38066
G1 X69.626 Y73.978 E44.39679
