;FLAVOR:Marlin
;TIME:16953
;Filament used:8.44136m
;Layer height: 0.1
;MINX:55.759
;MINY:70.259
;MINZ:0.24
;MAXX:164.239
;MAXY:149.741
;MAXZ:20.39
                           
;Creality Print GCode Generated by CXEngine:NO_MAGE_VERSION_GIT_HEAD_BRANCH
;CXEngine Release Time:2022-09-30 09:53:04
;Gcode Generated Time:2024-02-12 12:43:15
;----------Machine Config--------------
;Machine Name:Creality Ender-3
;Machine Height:250
;Machine Width:220
;Machine Depth:220
;Material name:cxsw
;Number of Extruders:1
;ExtruderParams[0] Nozzle Diameter1000
;----------Profile Config---------------
;Engine Version:275f99b
;Engine Release Time:2022-09-30 09:42:18
;Layer Height:0.1
;Wall Thickness:0.8
;Top/Bottom Thickness:0.5
;Out Wall Line Width:0.4
;Inner Wall Line Width:0.4
;Inital Layer Height:100
;Wall Line Count:2
;Infill Line Distance:4
;Infill Pattern:grid
;Infill Sparse Density:20
;Infill Wipe Distance:0
;Print Temperature:200
;Bed Temperature:60
;Support Enable:false
;Support Density:30
;Support Angle:60
;Adhesion Type:simpleraft
;machine is belt:false
;machine belt offset:10
;machine belt offset Y:0
;Raft Base Line Spacing:1.6
;Wait Heatup Sync:true
;----------Shell Config----------------
;Outer Wall Wipe Distance:200
;Outer Inset First:false
;Infill Before Walls:false
;Infill Overlap:0.16
;Fill Gaps Between Walls:everywhere
;Minimum Infill Area:1
;Top Surface Skin Layer:0
;Top Layers:4
;Z Seam Alignment:sharpest_corner
;Seam Corner Preference:z_seam_corner_inner
;Z Seam X:110
;Z Seam Y:110
;Horizontal Expansion:0
;Top/Bottom Pattern:zigzag
;Ironing Pattern:zigzag
;Vase Model:false
;----------Support Config----------------
;Support Type:everywhere
;Support Pattern:zigzag
;Support Infill Layer Thickness:0.1
;Minimum Support Area:5
;Enable Support Roof:false
;Support Roof Thickness:0.8
;Support Roof Pattern:lines
;Connect Support Lines:0
;Connect Support ZigZags:1
;Minimum Support X/Y Distance:0.2
;Support Line Distance:1.33
; ---------PrintSpeed & Travel----------
;Enable Print Cool:true
;Avoid Printed Parts Traveling:true
;Enable Retraction:true
;Retraction Distance:8
;Retraction Speed:100
;Retraction Prime Speed:100
;Maximum Retraction Count:100
;Minimum Extrusion Distance Window:1
;Z Hop When Retracted:false
;Z Hop Height:0.2
;Retract Before Outer Wall:true
;Print Speed:50
;Infill Speed:50

;Prime Tower Speed:50
;Travel Speed:120
;Initial Layer Speed:25
;Skirt/Brim Speed:25
;Combing Mode:infill
; --------SpecialModel&Mesh Fixes--------
;Union Overlapping Volum:true
;Remove All Holes:false
;Maximum Travel Resolution:0.6
;Maximum Deviation:0.05
;Maximum Model Angle:0.872665
;IS Mold Print:false
;Make Overhang Printable:false
;Enable Coasting:false
;Coasting Volumes:0.06
;Coasting Speed:0.9
;Raft AirGap:0.25
;Layer0 ZOverLap:0.13
;---------------------End of Head--------------------------
M140 S60
M105
M104 S200
M105
M109 S200
M105
M190 S60
M82 ;absolute extrusion mode
M220 S100 ;Reset Feedrate
M221 S100 ;Reset Flowrate

G28 ;Home

G92 E0 ;Reset Extruder
G1 Z2.0 F3000 ;Move Z Axis up
G1 X10.1 Y20 Z0.28 F5000.0 ;Move to start position
G1 X10.1 Y145.0 Z0.28 F1500.0 E15 ;Draw the first line
G1 X10.4 Y145.0 Z0.28 F5000.0 ;Move to side a little
G1 X10.4 Y20 Z0.28 F1500.0 E30 ;Draw the second line
G92 E0  ;Reset Extruder
G1 E-1.0000 F1800 ;Retract a bit
G1 Z2.0 F3000 ;Move Z Axis up
G1 E0.0000 F1800 

G92 E0
G92 E0
G1 F6000 E-8

;LAYER_COUNT:195

;LAYER:-4
M107
G0 F7200 X59.2 Y75.231 Z0.24
;TYPE:SUPPORT-INTERFACE
G1 F6000 E0
G1 F1200 X59.2 Y144.763 E6.10538
G1 X58.842 Y144.331 E6.15464
G1 X58.03 Y143.131 E6.28187
G1 X57.6 Y142.331 E6.36162
G1 X57.6 Y77.695 E12.0371
G1 X57.772 Y77.322 E12.07316
G1 X58.311 Y76.413 E12.16596
G1 X58.798 Y75.708 E12.24119
G1 X59.607 Y74.749 E12.35136
G1 X60.216 Y74.131 E12.42754
G1 X60.8 Y73.647 E12.49415
G1 X60.8 Y146.358 E18.87866
G1 X61.194 Y146.692 E18.92402
G1 X61.905 Y147.182 E18.99984
G1 X62.4 Y147.475 E19.05035
G1 X62.4 Y72.515 E25.63234
G1 X63.199 Y72.081 E25.71218
G1 X64 Y71.742 E25.78855
G1 X64 Y148.251 E32.50656
G1 X65.1 Y148.639 E32.60898
G1 X65.6 Y148.761 E32.65417
G1 X65.6 Y71.237 E39.4613
G1 X66.285 Y71.079 E39.52303
G1 X67.2 Y70.961 E39.60404
G1 X67.2 Y149.06 E46.46166
G1 X68.553 Y149.141 E46.58067
G1 X68.8 Y149.141 E46.60236
G1 X68.8 Y70.86 E53.47596
G1 X70.4 Y70.86 E53.61645
G1 X70.4 Y149.141 E60.49005
G1 X72 Y149.141 E60.63054
G1 X72 Y70.86 E67.50415
G1 X73.6 Y70.86 E67.64464
G1 X73.6 Y149.141 E74.51824
G1 X75.2 Y149.141 E74.65873
G1 X75.2 Y70.86 E81.53233
G1 X76.8 Y70.86 E81.67282
G1 X76.8 Y149.141 E88.54642
G1 X78.4 Y149.141 E88.68691
G1 X78.4 Y70.86 E95.56051
G1 X80 Y70.86 E95.701
G1 X80 Y149.141 E102.5746
G1 X81.6 Y149.141 E102.71509
G1 X81.6 Y70.86 E109.58869
G1 X83.2 Y70.86 E109.72919
G1 X83.2 Y149.141 E116.60279
G1 X84.8 Y149.141 E116.74328
G1 X84.8 Y70.86 E123.61688
G1 X86.4 Y70.86 E123.75737
G1 X86.4 Y149.141 E130.63097
G1 X88 Y149.141 E130.77146
G1 X88 Y70.86 E137.64506
G1 X89.6 Y70.86 E137.78555
G1 X89.6 Y149.141 E144.65915
G1 X91.2 Y149.141 E144.79964
G1 X91.2 Y70.86 E151.67324
G1 X92.8 Y70.86 E151.81373
G1 X92.8 Y149.141 E158.68734
G1 X94.4 Y149.141 E158.82783
G1 X94.4 Y70.86 E165.70143
G1 X96 Y70.861 E165.84192
G1 X96 Y149.141 E172.71543
G1 X97.6 Y149.141 E172.85592
G1 X97.6 Y70.861 E179.72943
G1 X99.2 Y70.861 E179.86993
G1 X99.2 Y149.141 E186.74344
G1 X100.8 Y149.141 E186.88393
G1 X100.8 Y70.861 E193.75744
G1 X102.4 Y70.861 E193.89793
G1 X102.4 Y149.141 E200.77145
G1 X104 Y149.141 E200.91194
G1 X104 Y70.861 E207.78545
G1 X105.6 Y70.861 E207.92594
G1 X105.6 Y149.141 E214.79945
G1 X107.2 Y149.141 E214.93994
G1 X107.2 Y70.861 E221.81346
G1 X108.8 Y70.861 E221.95395
G1 X108.8 Y149.141 E228.82746
G1 X110.4 Y149.141 E228.96795
G1 X110.4 Y70.861 E235.84147
G1 X112 Y70.861 E235.98196
G1 X112 Y149.141 E242.85547
G1 X113.6 Y149.141 E242.99596
G1 X113.6 Y70.861 E249.86947
G1 X115.2 Y70.861 E250.00996
G1 X115.2 Y149.141 E256.88348
G1 X116.8 Y149.141 E257.02397
G1 X116.8 Y70.861 E263.89748
G1 X118.4 Y70.861 E264.03797
G1 X118.4 Y149.141 E270.91148
G1 X120 Y149.141 E271.05198
G1 X120 Y70.861 E277.92549
G1 X121.6 Y70.861 E278.06598
G1 X121.6 Y149.141 E284.93949
G1 X123.2 Y149.141 E285.07998
G1 X123.2 Y70.861 E291.9535
G1 X123.387 Y70.861 E291.96992
G1 X124.8 Y70.862 E292.09399
G1 X124.8 Y149.141 E298.96741
G1 X126.4 Y149.141 E299.1079
G1 X126.4 Y70.862 E305.98133
G1 X128 Y70.862 E306.12182
G1 X128 Y149.141 E312.99524
G1 X129.6 Y149.141 E313.13573
G1 X129.6 Y70.862 E320.00916
G1 X131.2 Y70.862 E320.14965
G1 X131.2 Y149.141 E327.02308
G1 X132.8 Y149.141 E327.16357
G1 X132.8 Y70.862 E334.03699
G1 X134.4 Y70.862 E334.17748
G1 X134.4 Y149.141 E341.05091
G1 X136 Y149.141 E341.1914
G1 X136 Y70.862 E348.06482
G1 X137.6 Y70.862 E348.20532
G1 X137.6 Y149.141 E355.07874
G1 X139.2 Y149.141 E355.21923
G1 X139.2 Y70.862 E362.09266
G1 X140.8 Y70.862 E362.23315
G1 X140.8 Y149.141 E369.10657
G1 X142.4 Y149.141 E369.24706
G1 X142.4 Y70.862 E376.12049
G1 X144 Y70.862 E376.26098
G1 X144 Y149.141 E383.1344
G1 X145.6 Y149.141 E383.2749
G1 X145.6 Y70.862 E390.14832
G1 X147.2 Y70.862 E390.28881
G1 X147.2 Y149.141 E397.16224
G1 X148.8 Y149.141 E397.30273
G1 X148.8 Y70.862 E404.17615
G1 X150.4 Y70.862 E404.31664
G1 X150.4 Y149.141 E411.19007
G1 X151.419 Y149.141 E411.27954
G1 X152 Y149.12 E411.33059
G1 X152 Y70.893 E418.19945
G1 X152.819 Y70.943 E418.2715
G1 X153.6 Y71.053 E418.34075
G1 X153.6 Y148.936 E425.17941
G1 X153.715 Y148.921 E425.18959
G1 X154.923 Y148.642 E425.29845
G1 X155.2 Y148.549 E425.32411
G1 X155.2 Y71.465 E432.09261
G1 X156.025 Y71.744 E432.16908
G1 X156.8 Y72.102 E432.24404
G1 X156.8 Y147.92 E438.90137
G0 F7200 X156.801 Y147.919
G1 F1200 X157.667 Y147.448 E438.98793
G1 X158.4 Y146.95 E439.06574
G1 X158.4 Y73.032 E445.55624
G1 X158.835 Y73.333 E445.60269
G1 X159.749 Y74.109 E445.70797
G1 X160 Y74.357 E445.73895
G1 X160 Y145.649 E451.99887
G1 X160.399 Y145.244 E452.04879
G1 X161.182 Y144.318 E452.15527
G1 X161.694 Y143.58 E452.23414
G1 X162.226 Y142.682 E452.32579
G1 X162.778 Y141.476 E452.44225
G1 X163.167 Y140.319 E452.54943
G1 X163.2 Y140.181 E452.56189
G1 X163.2 Y79.834 E457.86077
G1 X163.14 Y79.576 E457.88402
G1 X162.849 Y78.719 E457.96349
G1 X162.428 Y77.726 E458.0582
G1 X161.966 Y76.866 E458.14392
G1 X161.6 Y76.326 E458.2012
G1 X161.6 Y143.716 E464.1185
;;retract;;
G1 F6000 E456.1185
G0 F600 X161.6 Y143.716 Z0.47
G0 F7200 X163.07 Y78.217
;TIME_ELAPSED:272.323846

;LAYER:-3
;TYPE:SUPPORT
G1 F6000 E464.1185
G1 F1800 X156.27 Y71.417 E464.85416
G1 X157.358 Y71.918 E464.94579
G1 X158.301 Y72.477 E465.02965
G1 X159.08 Y73.016 E465.10211
G1 X160.02 Y73.814 E465.19644
G1 X160.659 Y74.444 E465.26508
G1 X161.48 Y75.435 E465.36353
G1 X162.31 Y76.662 E465.47685
G1 X162.788 Y77.55 E465.554
G1 X163.228 Y78.59 E465.64038
G1 X163.526 Y79.467 E465.71124
G1 X163.713 Y80.275 E465.77468
G1 X154.22 Y70.782 E466.80168
G1 X153.758 Y70.671 E466.83803
G1 X152.861 Y70.545 E466.90732
G1 X152.55 Y70.526 E466.93116
G1 X163.967 Y81.943 E468.16631
G1 X164.012 Y82.294 E468.19338
G1 X164.039 Y83.016 E468.24865
G1 X164.038 Y83.427 E468.28009
G1 X151.072 Y70.462 E469.68276
G1 X149.658 Y70.462 E469.79093
G1 X164.038 Y84.842 E471.34663
G1 X164.038 Y86.256 E471.4548
G1 X148.244 Y70.462 E473.16347
G1 X146.83 Y70.462 E473.27164
G1 X164.038 Y87.67 E475.13329
G1 X164.038 Y89.084 E475.24145
G1 X145.415 Y70.462 E477.25613
G1 X144.001 Y70.462 E477.3643
G1 X164.038 Y90.499 E479.532
G1 X164.038 Y91.913 E479.64017
G1 X142.587 Y70.462 E481.96084
G1 X141.173 Y70.462 E482.06901
G1 X164.038 Y93.327 E484.54266
G1 X164.038 Y94.741 E484.65083
G1 X139.758 Y70.462 E487.27751
G1 X138.344 Y70.462 E487.38567
G1 X164.038 Y96.155 E490.16532
G1 X164.038 Y97.57 E490.27357
G1 X136.929 Y70.461 E493.20636
G1 X135.515 Y70.461 E493.31452
G1 X164.038 Y98.984 E496.40028
G1 X164.038 Y100.398 E496.50845
G1 X134.101 Y70.461 E499.74718
G1 X132.687 Y70.461 E499.85535
G1 X164.038 Y101.812 E503.24706
G1 X164.038 Y103.226 E503.35523
G1 X131.272 Y70.461 E506.89996
G1 X129.858 Y70.461 E507.00813
G1 X164.038 Y104.641 E510.70589
G1 X164.038 Y106.055 E510.81406
G1 X128.444 Y70.461 E514.6648
G1 X127.03 Y70.461 E514.77296
G1 X164.038 Y107.469 E518.77667
G1 X164.038 Y108.883 E518.88484
G1 X125.616 Y70.461 E523.04152
G1 X124.201 Y70.461 E523.14977
G1 X164.038 Y110.298 E527.45953
G1 X164.038 Y111.712 E527.5677
G1 X122.786 Y70.461 E532.03049
G1 X121.372 Y70.461 E532.13866
G1 X164.038 Y113.126 E536.75443
G1 X164.038 Y114.54 E536.8626
G1 X119.958 Y70.461 E541.63133
G1 X118.544 Y70.461 E541.7395
G1 X164.038 Y115.954 E546.66121
G1 X164.038 Y117.369 E546.76946
G1 X117.13 Y70.461 E551.8442
G1 X115.715 Y70.461 E551.95244
G1 X164.038 Y118.783 E557.18021
G1 X164.038 Y120.197 E557.28838
G1 X114.301 Y70.461 E562.66912
G1 X112.887 Y70.461 E562.77729
G1 X164.038 Y121.611 E568.311
G1 X164.038 Y123.025 E568.41917
G1 X111.473 Y70.461 E574.10586
G1 X110.059 Y70.461 E574.21403
G1 X164.038 Y124.44 E580.05374
G1 X164.038 Y125.854 E580.16191
G1 X108.644 Y70.46 E586.15471
G1 X107.229 Y70.46 E586.26295
G1 X164.038 Y127.268 E592.40878
G1 X164.038 Y128.682 E592.51695
G1 X105.815 Y70.46 E598.81575
G1 X104.401 Y70.46 E598.92391
G1 X164.038 Y130.097 E605.37574
G1 X164.038 Y131.511 E605.48391
G1 X102.987 Y70.46 E612.08871
G1 X101.573 Y70.46 E612.19688
G1 X164.038 Y132.925 E618.95465
G1 X164.038 Y134.339 E619.06282
G1 X100.158 Y70.46 E625.97362
G1 X98.744 Y70.46 E626.08179
G1 X164.038 Y135.753 E633.14556
G1 X164.039 Y137.025 E633.24287
G1 X164.03 Y137.16 E633.25322
G1 X97.33 Y70.46 E640.46915
G1 X95.915 Y70.459 E640.5774
G1 X163.939 Y138.484 E647.93663
G1 X163.837 Y139.233 E647.99445
G1 X163.728 Y139.686 E648.03009
G1 X94.501 Y70.459 E655.51941
G1 X93.087 Y70.459 E655.62758
G1 X163.427 Y140.799 E663.23731
G1 X163.15 Y141.624 E663.30388
G1 X163.051 Y141.838 E663.32192
G1 X91.672 Y70.459 E671.04406
G1 X90.258 Y70.459 E671.15222
G1 X162.607 Y142.808 E678.9793
G1 X162.581 Y142.867 E678.98423
G1 X162.086 Y143.701 E679.05842
G1 X88.844 Y70.459 E686.9821
G1 X87.43 Y70.459 E687.09027
G1 X161.513 Y144.543 E695.10499
G1 X161.504 Y144.556 E695.1062
G1 X160.866 Y145.309 E695.1817
G1 X86.016 Y70.459 E703.27934
G1 X84.601 Y70.459 E703.38759
G1 X160.178 Y146.036 E711.56388
G1 X160.045 Y146.172 E711.57843
G1 X159.419 Y146.691 E711.64064
G1 X83.187 Y70.459 E719.88779
G1 X81.772 Y70.458 E719.99604
G1 X158.606 Y147.292 E728.30832
G1 X157.874 Y147.792 E728.37613
G1 X157.754 Y147.855 E728.3865
G1 X80.358 Y70.458 E736.75964
G1 X78.944 Y70.458 E736.86781
G1 X156.826 Y148.341 E745.29352
G1 X155.903 Y148.732 E745.3702
G1 X155.827 Y148.756 E745.3763
G1 X77.53 Y70.458 E753.84691
G1 X76.115 Y70.458 E753.95516
G1 X154.748 Y149.092 E762.46212
G1 X153.786 Y149.316 E762.53768
G1 X153.584 Y149.341 E762.55325
G1 X74.701 Y70.458 E771.0872
G1 X73.287 Y70.458 E771.19537
G1 X152.329 Y149.501 E779.74658
G1 X152.267 Y149.51 E779.75137
G1 X151.434 Y149.541 E779.81514
G1 X150.954 Y149.54 E779.85186
G1 X71.873 Y70.458 E788.40729
G1 X70.458 Y70.458 E788.51553
G1 X149.54 Y149.54 E797.07101
G1 X148.126 Y149.54 E797.17918
G1 X69.044 Y70.458 E805.73467
G1 X68.566 Y70.459 E805.77123
G1 X67.733 Y70.49 E805.835
G1 X67.669 Y70.497 E805.83992
G1 X146.711 Y149.54 E814.39113
G1 X145.297 Y149.54 E814.4993
G1 X66.415 Y70.657 E823.0332
G1 X66.214 Y70.684 E823.04872
G1 X65.25 Y70.907 E823.12441
G1 X143.883 Y149.54 E831.63131
G1 X142.469 Y149.54 E831.73948
G1 X64.171 Y71.242 E840.21015
G1 X64.097 Y71.268 E840.21615
G1 X63.172 Y71.658 E840.29294
G1 X141.055 Y149.54 E848.71866
G1 X139.64 Y149.54 E848.8269
G1 X62.244 Y72.143 E857.20004
G1 X62.126 Y72.208 E857.21034
G1 X61.392 Y72.706 E857.2782
G1 X138.226 Y149.54 E865.59048
G1 X136.812 Y149.54 E865.69865
G1 X60.581 Y73.309 E873.94569
G1 X59.943 Y73.838 E874.0091
G1 X59.819 Y73.961 E874.02246
G1 X135.398 Y149.54 E882.19897
G1 X133.984 Y149.54 E882.30714
G1 X59.132 Y74.688 E890.405
G1 X58.485 Y75.456 E890.48182
G1 X132.569 Y149.54 E898.49659
G1 X131.155 Y149.54 E898.60476
G1 X57.912 Y76.297 E906.52855
G1 X57.419 Y77.133 E906.60279
G1 X57.391 Y77.19 E906.60765
G1 X129.741 Y149.54 E914.43483
G1 X128.327 Y149.54 E914.543
G1 X56.945 Y78.158 E922.26546
G1 X56.868 Y78.328 E922.27973
G1 X56.57 Y79.198 E922.35008
G1 X126.912 Y149.54 E929.96003
G1 X125.498 Y149.54 E930.0682
G1 X56.271 Y80.313 E937.55752
G1 X56.165 Y80.761 E937.59274
G1 X56.06 Y81.515 E937.65097
G1 X124.084 Y149.54 E945.0102
G1 X122.67 Y149.54 E945.11837
G1 X55.968 Y82.838 E952.33452
G1 X55.961 Y82.975 E952.34501
G1 X55.96 Y84.244 E952.44209
G1 X121.256 Y149.54 E959.50613
G1 X119.841 Y149.54 E959.61438
G1 X55.96 Y85.658 E966.5254
G1 X55.96 Y87.073 E966.63364
G1 X118.427 Y149.54 E973.39163
G1 X117.013 Y149.54 E973.4998
G1 X55.96 Y88.487 E980.10482
G1 X55.96 Y89.901 E980.21298
G1 X115.599 Y149.54 E986.66503
G1 X114.185 Y149.54 E986.77319
G1 X55.96 Y91.315 E993.07226
G1 X55.96 Y92.729 E993.18043
G1 X112.77 Y149.54 E999.32647
G1 X111.356 Y149.54 E999.43464
G1 X55.96 Y94.144 E1005.42765
G1 X55.96 Y95.558 E1005.53582
G1 X109.942 Y149.54 E1011.37586
G1 X108.528 Y149.54 E1011.48403
G1 X55.96 Y96.972 E1017.1711
G1 X55.96 Y98.386 E1017.27927
G1 X107.113 Y149.54 E1022.81331
G1 X105.699 Y149.54 E1022.92147
G1 X55.96 Y99.801 E1028.30249
G1 X55.959 Y101.214 E1028.41058
G1 X104.285 Y149.54 E1033.63872
G1 X102.871 Y149.54 E1033.74689
G1 X55.959 Y102.628 E1038.82206
G1 X55.959 Y104.042 E1038.93023
G1 X101.457 Y149.54 E1043.85243
G1 X100.042 Y149.54 E1043.96068
G1 X55.959 Y105.457 E1048.72979
G1 X55.959 Y106.871 E1048.83796
G1 X98.628 Y149.54 E1053.45411
G1 X97.214 Y149.54 E1053.56227
