;FLAVOR:Marlin
;TIME:13090
;Filament used:9.08408m
;Layer height: 0.15
;MINX:55.609
;MINY:70.108
;MINZ:0.24
;MAXX:164.391
;MAXY:149.891
;MAXZ:20.39
                           
;Creality Print GCode Generated by CXEngine:NO_MAGE_VERSION_GIT_HEAD_BRANCH
;CXEngine Release Time:2022-09-30 09:53:04
;Gcode Generated Time:2024-02-11 20:40:53
;----------Machine Config--------------
;Machine Name:Creality Ender-3
;Machine Height:250
;Machine Width:220
;Machine Depth:220
;Material name:cxsw
;Number of Extruders:1
;ExtruderParams[0] Nozzle Diameter1000
;----------Profile Config---------------
;Engine Version:275f99b
;Engine Release Time:2022-09-30 09:42:18
;Layer Height:0.15
;Wall Thickness:0.8
;Top/Bottom Thickness:1
;Out Wall Line Width:0.4
;Inner Wall Line Width:0.4
;Inital Layer Height:150
;Wall Line Count:2
;Infill Line Distance:4
;Infill Pattern:grid
;Infill Sparse Density:20
;Infill Wipe Distance:0
;Print Temperature:200
;Bed Temperature:60
;Support Enable:false
;Support Density:30
;Support Angle:60
;Adhesion Type:simpleraft
;machine is belt:false
;machine belt offset:10
;machine belt offset Y:0
;Raft Base Line Spacing:1.6
;Wait Heatup Sync:true
;----------Shell Config----------------
;Outer Wall Wipe Distance:200
;Outer Inset First:false
;Infill Before Walls:false
;Infill Overlap:0.16
;Fill Gaps Between Walls:everywhere
;Minimum Infill Area:1
;Top Surface Skin Layer:0
;Top Layers:4
;Z Seam Alignment:sharpest_corner
;Seam Corner Preference:z_seam_corner_inner
;Z Seam X:110
;Z Seam Y:110
;Horizontal Expansion:0
;Top/Bottom Pattern:zigzag
;Ironing Pattern:zigzag
;Vase Model:false
;----------Support Config----------------
;Support Type:everywhere
;Support Pattern:zigzag
;Support Infill Layer Thickness:0.15
;Minimum Support Area:5
;Enable Support Roof:false
;Support Roof Thickness:0.8
;Support Roof Pattern:lines
;Connect Support Lines:0
;Connect Support ZigZags:1
;Minimum Support X/Y Distance:0.2
;Support Line Distance:1.33
; ---------PrintSpeed & Travel----------
;Enable Print Cool:true
;Avoid Printed Parts Traveling:true
;Enable Retraction:true
;Retraction Distance:8
;Retraction Speed:100
;Retraction Prime Speed:100
;Maximum Retraction Count:100
;Minimum Extrusion Distance Window:1
;Z Hop When Retracted:false
;Z Hop Height:0.2
;Retract Before Outer Wall:true
;Print Speed:50
;Infill Speed:50

;Prime Tower Speed:50
;Travel Speed:120
;Initial Layer Speed:25
;Skirt/Brim Speed:25
;Combing Mode:infill
; --------SpecialModel&Mesh Fixes--------
;Union Overlapping Volum:true
;Remove All Holes:false
;Maximum Travel Resolution:0.6
;Maximum Deviation:0.05
;Maximum Model Angle:0.872665
;IS Mold Print:false
;Make Overhang Printable:false
;Enable Coasting:false
;Coasting Volumes:0.06
;Coasting Speed:0.9
;Raft AirGap:0.25
;Layer0 ZOverLap:0.13
;---------------------End of Head--------------------------
M140 S60
M105
M104 S200
M105
M109 S200
M105
M190 S60
M82 ;absolute extrusion mode
M220 S100 ;Reset Feedrate
M221 S100 ;Reset Flowrate

G28 ;Home

G92 E0 ;Reset Extruder
G1 Z2.0 F3000 ;Move Z Axis up
G1 X10.1 Y20 Z0.28 F5000.0 ;Move to start position
G1 X10.1 Y145.0 Z0.28 F1500.0 E15 ;Draw the first line
G1 X10.4 Y145.0 Z0.28 F5000.0 ;Move to side a little
G1 X10.4 Y20 Z0.28 F1500.0 E30 ;Draw the second line
G92 E0  ;Reset Extruder
G1 E-1.0000 F1800 ;Retract a bit
G1 Z2.0 F3000 ;Move Z Axis up
G1 E0.0000 F1800 

G92 E0
G92 E0
G1 F6000 E-8

;LAYER_COUNT:130

;LAYER:-4
M107
G0 F7200 X57.6 Y77.356 Z0.24
;TYPE:SUPPORT-INTERFACE
G1 F6000 E0
G1 F1200 X57.6 Y142.64 E5.73238
G1 X57.405 Y142.271 E5.76902
G1 X56.993 Y141.287 E5.86269
G1 X56.727 Y140.51 E5.93481
G1 X56.459 Y139.406 E6.03456
G1 X56.318 Y138.593 E6.10701
G1 X56.238 Y137.69 E6.18661
G1 X56.209 Y136.907 E6.25541
G1 X56.216 Y82.917 E10.9961
G1 X56.299 Y81.621 E11.11013
G1 X56.421 Y80.764 E11.18614
G1 X56.674 Y79.695 E11.2826
G1 X56.922 Y78.895 E11.35614
G1 X57.333 Y77.895 E11.45107
G1 X57.731 Y77.092 E11.52977
G1 X58.238 Y76.256 E11.61562
G1 X58.755 Y75.521 E11.69452
G1 X59.2 Y74.997 E11.75489
G1 X59.2 Y145.004 E17.90198
G1 X59.568 Y145.431 E17.95147
G1 X60.199 Y146.045 E18.02878
G1 X60.8 Y146.555 E18.09799
G1 X60.8 Y73.439 E24.51807
G1 X60.86 Y73.388 E24.52498
G1 X61.543 Y72.877 E24.59988
G1 X62.4 Y72.345 E24.68845
G1 X62.4 Y147.65 E31.30074
G1 X62.639 Y147.795 E31.32529
G1 X63.402 Y148.17 E31.39994
G1 X64 Y148.415 E31.45668
G1 X64 Y71.582 E38.20314
G1 X64.187 Y71.504 E38.22093
G1 X65.006 Y71.224 E38.29693
G1 X65.6 Y71.079 E38.35062
G1 X65.6 Y148.921 E45.18567
G1 X66.237 Y149.073 E45.24318
G1 X67.107 Y149.199 E45.32037
G1 X67.2 Y149.204 E45.32854
G1 X67.2 Y70.792 E52.21365
G1 X67.773 Y70.739 E52.26418
G1 X68.573 Y70.709 E52.33447
G1 X68.8 Y70.709 E52.3544
G1 X68.8 Y149.284 E59.25382
G1 X70.4 Y149.284 E59.39431
G1 X70.4 Y70.709 E66.29373
G1 X72 Y70.709 E66.43422
G1 X72 Y149.285 E73.33372
G1 X73.6 Y149.285 E73.47421
G1 X73.6 Y70.709 E80.37371
G1 X75.2 Y70.709 E80.51421
G1 X75.2 Y149.285 E87.41371
G1 X76.8 Y149.286 E87.5542
G1 X76.8 Y70.709 E94.45379
G1 X78.4 Y70.709 E94.59428
G1 X78.4 Y149.286 E101.49388
G1 X80 Y149.287 E101.63437
G1 X80 Y70.709 E108.53405
G1 X81.6 Y70.709 E108.67454
G1 X81.6 Y149.287 E115.57422
G1 X83.2 Y149.288 E115.71471
G1 X83.2 Y70.709 E122.61447
G1 X84.8 Y70.709 E122.75497
G1 X84.8 Y149.288 E129.65473
G1 X86.4 Y149.289 E129.79522
G1 X86.4 Y70.709 E136.69508
G1 X88 Y70.709 E136.83557
G1 X88 Y149.289 E143.73543
G1 X89.6 Y149.29 E143.87592
G1 X89.6 Y70.709 E150.77586
G1 X91.2 Y70.709 E150.91635
G1 X91.2 Y149.29 E157.81629
G1 X92.8 Y149.29 E157.95678
G1 X92.8 Y70.709 E164.85673
G1 X94.4 Y70.709 E164.99722
G1 X94.4 Y149.291 E171.89725
G1 X96 Y149.291 E172.03774
G1 X96 Y70.709 E178.93777
G1 X97.6 Y70.709 E179.07826
G1 X97.6 Y149.291 E185.97829
G1 X99.2 Y149.291 E186.11878
G1 X99.2 Y70.709 E193.01881
G1 X100.8 Y70.709 E193.1593
G1 X100.8 Y149.291 E200.05934
G1 X102.4 Y149.291 E200.19983
G1 X102.4 Y70.709 E207.09986
G1 X104 Y70.709 E207.24035
G1 X104 Y149.291 E214.14038
G1 X105.6 Y149.291 E214.28087
G1 X105.6 Y70.709 E221.1809
G1 X107.2 Y70.709 E221.32139
G1 X107.2 Y149.291 E228.22142
G1 X108.8 Y149.291 E228.36191
G1 X108.8 Y70.709 E235.26194
G1 X110.4 Y70.709 E235.40243
G1 X110.4 Y149.291 E242.30246
G1 X112 Y149.291 E242.44296
G1 X112 Y70.709 E249.34299
G1 X113.6 Y70.709 E249.48348
G1 X113.6 Y149.291 E256.38351
G1 X115.2 Y149.291 E256.524
G1 X115.2 Y70.709 E263.42403
G1 X116.8 Y70.709 E263.56452
G1 X116.8 Y149.291 E270.46455
G1 X118.4 Y149.291 E270.60504
G1 X118.4 Y70.709 E277.50507
G1 X120 Y70.709 E277.64556
G1 X120 Y149.291 E284.54559
G1 X121.6 Y149.291 E284.68609
G1 X121.6 Y70.709 E291.58612
G1 X123.2 Y70.709 E291.72661
G1 X123.2 Y149.291 E298.62664
G1 X124.8 Y149.291 E298.76713
G1 X124.8 Y70.709 E305.66716
G1 X126.4 Y70.709 E305.80765
G1 X126.4 Y149.291 E312.70768
G1 X128 Y149.291 E312.84817
G1 X128 Y70.71 E319.74812
G1 X129.6 Y70.71 E319.88861
G1 X129.6 Y149.291 E326.78855
G1 X131.2 Y149.291 E326.92904
G1 X131.2 Y70.711 E333.8289
G1 X132.8 Y70.711 E333.96939
G1 X132.8 Y149.291 E340.86924
G1 X134.4 Y149.291 E341.00973
G1 X134.4 Y70.712 E347.9095
G1 X136 Y70.712 E348.04999
G1 X136 Y149.291 E354.94976
G1 X137.6 Y149.291 E355.09025
G1 X137.6 Y70.713 E361.98993
G1 X139.2 Y70.713 E362.13042
G1 X139.2 Y149.291 E369.0301
G1 X140.8 Y149.291 E369.17059
G1 X140.8 Y70.713 E376.07027
G1 X142.4 Y70.714 E376.21076
G1 X142.4 Y149.291 E383.11035
G1 X144 Y149.291 E383.25084
G1 X144 Y70.714 E390.15044
G1 X145.6 Y70.715 E390.29093
G1 X145.6 Y149.291 E397.19043
G1 X147.2 Y149.291 E397.33092
G1 X147.2 Y70.715 E404.23042
G1 X148.8 Y70.716 E404.37092
G1 X148.8 Y149.291 E411.27033
G1 X150.4 Y149.291 E411.41082
G1 X150.4 Y70.716 E418.31024
G1 X151.573 Y70.716 E418.41323
G1 X152 Y70.744 E418.45081
G1 X152 Y149.27 E425.34592
G1 X152.19 Y149.262 E425.36262
G1 X153.253 Y149.162 E425.45637
G1 X153.6 Y149.097 E425.48737
G1 X153.6 Y70.904 E432.35324
G1 X153.763 Y70.927 E432.3677
G1 X154.782 Y71.169 E432.45966
G1 X155.2 Y71.299 E432.4981
G1 X155.2 Y148.707 E439.29504
G1 X155.8 Y148.501 E439.35075
G1 X156.794 Y148.086 E439.44533
G1 X156.8 Y148.083 E439.44592
G1 X156.8 Y71.93 E446.13267
G1 X157.35 Y72.2 E446.18647
G1 X158.249 Y72.742 E446.27864
G1 X158.4 Y72.849 E446.29489
G1 X158.4 Y147.161 E452.81999
G1 X158.439 Y147.136 E452.82405
G1 X159.138 Y146.612 E452.90076
G1 X159.917 Y145.945 E452.99081
G1 X160 Y145.861 E453.00118
G1 X160 Y74.146 E459.29824
G1 X160.428 Y74.564 E459.35077
G1 X161.13 Y75.382 E459.44542
G1 X161.6 Y76.011 E459.51437
G1 X161.6 Y143.974 E465.48198
G1 X161.753 Y143.756 E465.50536
G1 X162.272 Y142.903 E465.59304
G1 X162.667 Y142.104 E465.6713
G1 X163.079 Y141.105 E465.76619
G1 X163.344 Y140.243 E465.84537
G1 X163.574 Y139.262 E465.93385
G1 X163.705 Y138.35 E466.01475
G1 X163.784 Y137.068 E466.12753
G1 X163.791 Y83.073 E470.86865
G1 X163.763 Y82.302 E470.9364
G1 X163.678 Y81.38 E471.0177
G1 X163.533 Y80.562 E471.09065
G1 X163.273 Y79.493 E471.18725
G1 X163.2 Y79.28 E471.20702
G1 X163.2 Y140.712 E476.60116
;;retract;;
G1 F6000 E468.60116
G0 F600 X163.2 Y140.712 Z0.47
G0 F7200 X163.348 Y78.495
;TIME_ELAPSED:279.439799

;LAYER:-3
;TYPE:SUPPORT
G1 F6000 E476.60116
G1 F1800 X156.009 Y71.156 E477.39513
G1 X156.755 Y71.461 E477.45678
G1 X157.546 Y71.85 E477.52422
G1 X158.465 Y72.404 E477.6063
G1 X159.166 Y72.899 E477.67195
G1 X161.568 Y75.301 E477.93181
G1 X161.957 Y75.82 E477.98143
G1 X162.535 Y76.756 E478.06558
G1 X162.953 Y77.549 E478.13416
G1 X163.376 Y78.559 E478.21792
G1 X163.66 Y79.389 E478.28503
G1 X163.925 Y80.479 E478.37084
G1 X163.926 Y80.487 E478.37146
G1 X154.015 Y70.577 E479.44363
G1 X153.833 Y70.533 E479.45795
G1 X152.939 Y70.403 E479.52706
G1 X152.392 Y70.368 E479.56899
G1 X164.147 Y82.123 E480.8407
G1 X164.163 Y82.287 E480.85331
G1 X164.191 Y83.058 E480.91233
G1 X164.19 Y83.58 E480.95226
G1 X150.926 Y70.316 E482.38723
G1 X149.512 Y70.316 E482.49539
G1 X164.19 Y84.994 E484.08333
G1 X164.19 Y86.408 E484.1915
G1 X148.097 Y70.315 E485.93252
G1 X146.682 Y70.315 E486.04077
G1 X164.19 Y87.822 E487.93481
G1 X164.189 Y89.236 E488.04298
G1 X145.268 Y70.314 E490.09001
G1 X143.853 Y70.313 E490.19825
G1 X164.189 Y90.65 E492.39835
G1 X164.189 Y92.064 E492.50652
G1 X142.438 Y70.313 E494.85965
G1 X141.023 Y70.313 E494.9679
G1 X164.189 Y93.478 E497.47406
G1 X164.188 Y94.892 E497.58223
G1 X139.609 Y70.313 E500.2413
G1 X138.194 Y70.312 E500.34955
G1 X164.188 Y96.306 E503.16171
G1 X164.188 Y97.72 E503.26988
G1 X136.779 Y70.311 E506.23512
G1 X135.365 Y70.311 E506.34329
G1 X164.188 Y99.134 E509.4615
G1 X164.188 Y100.548 E509.56967
G1 X133.95 Y70.311 E512.84091
G1 X132.536 Y70.311 E512.94908
G1 X164.188 Y101.962 E516.3733
G1 X164.188 Y103.376 E516.48147
G1 X131.121 Y70.31 E520.05876
G1 X129.707 Y70.31 E520.16693
G1 X164.187 Y104.79 E523.89715
G1 X164.187 Y106.204 E524.00532
G1 X128.292 Y70.309 E527.88862
G1 X127.018 Y70.309 E527.98607
G1 X126.877 Y70.309 E527.99686
G1 X164.187 Y107.618 E532.03319
G1 X164.187 Y109.033 E532.14143
G1 X125.463 Y70.309 E536.33079
G1 X124.049 Y70.309 E536.43895
G1 X164.186 Y110.446 E540.78117
G1 X164.186 Y111.86 E540.88934
G1 X122.634 Y70.309 E545.38459
G1 X121.22 Y70.309 E545.49276
G1 X164.186 Y113.274 E550.14098
G1 X164.186 Y114.689 E550.24922
G1 X119.806 Y70.309 E555.05047
G1 X118.392 Y70.309 E555.15864
G1 X164.185 Y116.102 E560.11275
G1 X164.185 Y117.516 E560.22092
G1 X116.978 Y70.309 E565.32801
G1 X115.563 Y70.309 E565.43625
G1 X164.185 Y118.931 E570.69642
G1 X164.185 Y120.345 E570.80459
G1 X114.149 Y70.309 E576.21773
G1 X112.735 Y70.309 E576.3259
G1 X164.185 Y121.758 E581.89196
G1 X164.185 Y123.173 E582.00021
G1 X111.321 Y70.309 E587.7193
G1 X109.907 Y70.309 E587.82747
G1 X164.185 Y124.587 E593.69953
G1 X164.185 Y126.001 E593.8077
G1 X108.492 Y70.309 E599.83279
G1 X107.078 Y70.309 E599.94096
G1 X164.184 Y127.414 E606.11891
G1 X164.184 Y128.829 E606.22716
G1 X105.664 Y70.309 E612.55814
G1 X104.25 Y70.309 E612.66631
G1 X164.184 Y130.243 E619.15027
G1 X164.184 Y131.657 E619.25843
G1 X102.835 Y70.309 E625.89542
G1 X101.421 Y70.309 E626.00359
G1 X164.183 Y133.071 E632.79349
G1 X164.183 Y134.485 E632.90166
G1 X100.007 Y70.309 E639.84454
G1 X98.593 Y70.309 E639.95271
G1 X164.183 Y135.899 E647.04856
G1 X164.184 Y137.077 E647.13867
G1 X164.169 Y137.299 E647.15569
G1 X97.179 Y70.309 E654.403
G1 X95.764 Y70.309 E654.51125
G1 X164.071 Y138.615 E661.90098
G1 X163.968 Y139.33 E661.95624
G1 X163.855 Y139.813 E661.99419
G1 X94.35 Y70.309 E669.51353
G1 X92.936 Y70.309 E669.6217
G1 X163.552 Y140.924 E677.26123
G1 X163.455 Y141.242 E677.28667
G1 X163.162 Y141.949 E677.34521
G1 X91.522 Y70.309 E685.09558
G1 X90.108 Y70.309 E685.20375
G1 X162.712 Y142.913 E693.05841
G1 X162.623 Y143.096 E693.07398
G1 X162.19 Y143.805 E693.13753
G1 X88.693 Y70.309 E701.08874
G1 X87.279 Y70.309 E701.19691
G1 X161.615 Y144.645 E709.23895
G1 X161.559 Y144.727 E709.24654
G1 X160.972 Y145.415 E709.31573
G1 X85.865 Y70.309 E717.44112
G1 X84.451 Y70.309 E717.54929
G1 X160.284 Y146.142 E725.75328
G1 X160.192 Y146.236 E725.76334
G1 X159.529 Y146.801 E725.82998
G1 X83.036 Y70.309 E734.10531
G1 X81.622 Y70.309 E734.21348
G1 X158.73 Y147.416 E742.55535
G1 X158.668 Y147.464 E742.56135
G1 X157.86 Y147.961 E742.63392
G1 X80.208 Y70.309 E751.0347
G1 X78.794 Y70.309 E751.14287
G1 X156.941 Y148.456 E759.5972
G1 X155.944 Y148.873 E759.67987
G1 X77.38 Y70.309 E768.17931
G1 X75.965 Y70.309 E768.28755
G1 X154.876 Y149.22 E776.82454
G1 X154.249 Y149.381 E776.87406
G1 X153.722 Y149.479 E776.91506
G1 X74.551 Y70.309 E785.48012
G1 X73.137 Y70.309 E785.58829
G1 X152.465 Y149.637 E794.17038
G1 X152.208 Y149.662 E794.19014
G1 X151.441 Y149.691 E794.24885
G1 X151.104 Y149.69 E794.27463
G1 X71.723 Y70.309 E802.86246
G1 X70.309 Y70.309 E802.97063
G1 X149.69 Y149.69 E811.55846
G1 X148.276 Y149.69 E811.66663
G1 X68.894 Y70.309 E820.25451
G1 X68.558 Y70.309 E820.28022
G1 X67.755 Y70.339 E820.34169
G1 X67.531 Y70.359 E820.35889
G1 X146.861 Y149.69 E828.94126
G1 X145.447 Y149.69 E829.04942
G1 X66.279 Y70.522 E837.61421
G1 X65.979 Y70.576 E837.63753
G1 X65.125 Y70.782 E837.70473
G1 X144.033 Y149.69 E846.24139
G1 X142.619 Y149.69 E846.34956
G1 X64.055 Y71.126 E854.849
G1 X64.043 Y71.131 E854.85
G1 X63.057 Y71.542 E854.93171
G1 X141.204 Y149.69 E863.3861
G1 X139.79 Y149.69 E863.49427
G1 X62.137 Y72.037 E871.89515
G1 X61.319 Y72.545 E871.96881
G1 X61.268 Y72.582 E871.97363
G1 X138.376 Y149.69 E880.31556
G1 X136.962 Y149.69 E880.42373
G1 X60.468 Y73.196 E888.69923
G1 X59.79 Y73.78 E888.76768
G1 X59.714 Y73.856 E888.7759
G1 X135.548 Y149.69 E896.98
G1 X134.133 Y149.69 E897.08824
G1 X59.026 Y74.582 E905.21375
G1 X58.441 Y75.273 E905.28301
G1 X58.382 Y75.353 E905.29061
G1 X132.719 Y149.69 E913.33275
G1 X131.305 Y149.69 E913.44092
G1 X57.807 Y76.192 E921.3923
G1 X57.377 Y76.904 E921.45593
G1 X57.286 Y77.085 E921.47143
G1 X129.891 Y149.69 E929.3262
G1 X128.477 Y149.69 E929.43436
G1 X56.836 Y78.049 E937.18484
G1 X56.546 Y78.757 E937.24337
G1 X56.446 Y79.074 E937.2688
G1 X127.062 Y149.69 E944.90839
G1 X125.648 Y149.69 E945.01655
G1 X56.145 Y80.187 E952.53573
G1 X56.027 Y80.693 E952.57548
G1 X55.927 Y81.383 E952.62881
G1 X124.234 Y149.69 E960.0186
G1 X122.82 Y149.69 E960.12677
G1 X55.828 Y82.698 E967.3743
G1 X55.816 Y82.908 E967.39039
G1 X55.815 Y84.099 E967.4815
G1 X121.405 Y149.69 E974.5774
G1 X119.991 Y149.69 E974.68557
G1 X55.815 Y85.513 E981.6285
G1 X55.815 Y86.928 E981.73675
G1 X118.577 Y149.69 E988.52665
G1 X117.163 Y149.69 E988.63482
G1 X55.814 Y88.341 E995.27186
G1 X55.814 Y89.755 E995.38003
G1 X115.749 Y149.69 E1001.86409
G1 X114.334 Y149.69 E1001.97234
G1 X55.814 Y91.17 E1008.30332
