;FLAVOR:Marlin
;TIME:17508
;Filament used:8.31816m
;Layer height: 0.1
;MINX:55.27
;MINY:69.769
;MINZ:0.24
;MAXX:164.73
;MAXY:150.23
;MAXZ:17.89
                              
;Creality Print GCode Generated by CXEngine:NO_MAGE_VERSION_GIT_HEAD_BRANCH
;CXEngine Release Time:2022-09-30 09:53:04
;Gcode Generated Time:2024-02-16 13:22:12
;----------Machine Config--------------
;Machine Name:Creality Ender-3
;Machine Height:250
;Machine Width:220
;Machine Depth:220
;Material name:cxsw
;Number of Extruders:1
;ExtruderParams[0] Nozzle Diameter1000
;----------Profile Config---------------
;Engine Version:275f99b
;Engine Release Time:2022-09-30 09:42:18
;Layer Height:0.1
;Wall Thickness:0.8
;Top/Bottom Thickness:0.5
;Out Wall Line Width:0.4
;Inner Wall Line Width:0.4
;Inital Layer Height:100
;Wall Line Count:2
;Infill Line Distance:4
;Infill Pattern:grid
;Infill Sparse Density:20
;Infill Wipe Distance:0
;Print Temperature:200
;Bed Temperature:60
;Support Enable:false
;Support Density:30
;Support Angle:60
;Adhesion Type:simpleraft
;machine is belt:false
;machine belt offset:10
;machine belt offset Y:0
;Raft Base Line Spacing:1.6
;Wait Heatup Sync:true
;----------Shell Config----------------
;Outer Wall Wipe Distance:200
;Outer Inset First:false
;Infill Before Walls:false
;Infill Overlap:0.16
;Fill Gaps Between Walls:everywhere
;Minimum Infill Area:1
;Top Surface Skin Layer:0
;Top Layers:4
;Z Seam Alignment:sharpest_corner
;Seam Corner Preference:z_seam_corner_inner
;Z Seam X:110
;Z Seam Y:110
;Horizontal Expansion:0
;Top/Bottom Pattern:zigzag
;Ironing Pattern:zigzag
;Vase Model:false
;----------Support Config----------------
;Support Type:everywhere
;Support Pattern:zigzag
;Support Infill Layer Thickness:0.1
;Minimum Support Area:5
;Enable Support Roof:false
;Support Roof Thickness:0.8
;Support Roof Pattern:lines
;Connect Support Lines:0
;Connect Support ZigZags:1
;Minimum Support X/Y Distance:0.2
;Support Line Distance:1.33
; ---------PrintSpeed & Travel----------
;Enable Print Cool:true
;Avoid Printed Parts Traveling:true
;Enable Retraction:true
;Retraction Distance:8
;Retraction Speed:100
;Retraction Prime Speed:100
;Maximum Retraction Count:100
;Minimum Extrusion Distance Window:1
;Z Hop When Retracted:false
;Z Hop Height:0.2
;Retract Before Outer Wall:true
;Print Speed:50
;Infill Speed:50

;Prime Tower Speed:50
;Travel Speed:120
;Initial Layer Speed:25
;Skirt/Brim Speed:25
;Combing Mode:infill
; --------SpecialModel&Mesh Fixes--------
;Union Overlapping Volum:true
;Remove All Holes:false
;Maximum Travel Resolution:0.6
;Maximum Deviation:0.05
;Maximum Model Angle:0.872665
;IS Mold Print:false
;Make Overhang Printable:false
;Enable Coasting:false
;Coasting Volumes:0.06
;Coasting Speed:0.9
;Raft AirGap:0.25
;Layer0 ZOverLap:0.13
;---------------------End of Head--------------------------
M140 S60
M105
M104 S200
M105
M109 S200
M105
M190 S60
M82 ;absolute extrusion mode
M220 S100 ;Reset Feedrate
M221 S100 ;Reset Flowrate

G28 ;Home

G92 E0 ;Reset Extruder
G1 Z2.0 F3000 ;Move Z Axis up
G1 X10.1 Y20 Z0.28 F5000.0 ;Move to start position
G1 X10.1 Y145.0 Z0.28 F1500.0 E15 ;Draw the first line
G1 X10.4 Y145.0 Z0.28 F5000.0 ;Move to side a little
G1 X10.4 Y20 Z0.28 F1500.0 E30 ;Draw the second line
G92 E0  ;Reset Extruder
G1 E-1.0000 F1800 ;Retract a bit
G1 Z2.0 F3000 ;Move Z Axis up
G1 E0.0000 F1800 

G92 E0
G92 E0
G1 F6000 E-8

;LAYER_COUNT:170

;LAYER:-4
M107
G0 F7200 X62.4 Y71.974 Z0.24
;TYPE:SUPPORT-INTERFACE
G1 F6000 E0
G1 F1200 X62.4 Y148.038 E6.67893
G1 X61.232 Y147.317 E6.79946
G1 X60.8 Y146.974 E6.84789
G1 X60.8 Y73.024 E13.3412
G1 X61.769 Y72.326 E13.44606
G1 X62.965 Y71.66 E13.56626
G1 X64 Y71.231 E13.66464
G1 X64 Y148.768 E20.47292
G1 X64.408 Y148.937 E20.51169
G1 X65.6 Y149.274 E20.62046
G1 X65.6 Y70.742 E27.5161
G1 X66.366 Y70.561 E27.58521
G1 X67.2 Y70.466 E27.65892
G1 X67.2 Y149.549 E34.60294
G1 X67.215 Y149.552 E34.60428
G1 X68.419 Y149.624 E34.71019
G1 X68.8 Y149.624 E34.74364
G1 X68.8 Y70.37 E41.70268
G1 X70.4 Y70.37 E41.84317
G1 X70.4 Y149.624 E48.80221
G1 X72 Y149.624 E48.9427
G1 X72 Y70.37 E55.90174
G1 X73.6 Y70.37 E56.04223
G1 X73.6 Y149.625 E63.00135
G1 X75.2 Y149.625 E63.14184
G1 X75.2 Y70.37 E70.10097
G1 X76.8 Y70.37 E70.24146
G1 X76.8 Y149.625 E77.20058
G1 X78.4 Y149.626 E77.34107
G1 X78.4 Y70.37 E84.30029
G1 X80 Y70.37 E84.44078
G1 X80 Y149.626 E91.39999
G1 X81.6 Y149.627 E91.54048
G1 X81.6 Y70.37 E98.49978
G1 X83.2 Y70.37 E98.64027
G1 X83.2 Y149.627 E105.59957
G1 X84.8 Y149.627 E105.74006
G1 X84.8 Y70.37 E112.69936
G1 X86.4 Y70.37 E112.83985
G1 X86.4 Y149.628 E119.79924
G1 X88 Y149.628 E119.93973
G1 X88 Y70.37 E126.89912
G1 X89.6 Y70.37 E127.03961
G1 X89.6 Y149.628 E133.999
G1 X91.2 Y149.629 E134.13949
G1 X91.2 Y70.37 E141.09897
G1 X92.8 Y70.37 E141.23946
G1 X92.8 Y149.629 E148.19893
G1 X94.273 Y149.63 E148.32827
G1 X94.4 Y149.63 E148.33943
G1 X94.4 Y70.37 E155.29899
G1 X96 Y70.37 E155.43948
G1 X96 Y149.63 E162.39904
G1 X97.6 Y149.629 E162.53954
G1 X97.6 Y70.37 E169.49901
G1 X99.2 Y70.37 E169.6395
G1 X99.2 Y149.629 E176.59898
G1 X100.8 Y149.628 E176.73947
G1 X100.8 Y70.37 E183.69886
G1 X102.4 Y70.37 E183.83935
G1 X102.4 Y149.628 E190.79874
G1 X104 Y149.627 E190.93923
G1 X104 Y70.37 E197.89853
G1 X105.6 Y70.37 E198.03902
G1 X105.6 Y149.627 E204.99832
G1 X107.2 Y149.626 E205.13881
G1 X107.2 Y70.37 E212.09802
G1 X108.8 Y70.37 E212.23851
G1 X108.8 Y149.625 E219.19764
G1 X110.4 Y149.625 E219.33813
G1 X110.4 Y70.37 E226.29725
G1 X112 Y70.37 E226.43774
G1 X112 Y149.624 E233.39678
G1 X113.6 Y149.624 E233.53727
G1 X113.6 Y70.37 E240.49631
G1 X115.2 Y70.37 E240.6368
G1 X115.2 Y149.623 E247.59575
G1 X116.8 Y149.623 E247.73624
G1 X116.8 Y70.37 E254.69519
G1 X118.4 Y70.37 E254.83568
G1 X118.4 Y149.622 E261.79454
G1 X120 Y149.622 E261.93503
G1 X120 Y70.37 E268.89389
G1 X121.6 Y70.37 E269.03438
G1 X121.6 Y149.621 E275.99316
G1 X123.2 Y149.62 E276.13365
G1 X123.2 Y70.37 E283.09233
G1 X124.8 Y70.37 E283.23282
G1 X124.8 Y149.62 E290.19151
G1 X126.4 Y149.619 E290.332
G1 X126.4 Y70.371 E297.29051
G1 X128 Y70.371 E297.431
G1 X128 Y149.619 E304.38951
G1 X129.6 Y149.618 E304.53
G1 X129.6 Y70.371 E311.48842
G1 X131.2 Y70.372 E311.62892
G1 X131.2 Y149.618 E318.58725
G1 X132.8 Y149.617 E318.72774
G1 X132.8 Y70.372 E325.68599
G1 X134.4 Y70.373 E325.82648
G1 X134.4 Y149.617 E332.78464
G1 X136 Y149.616 E332.92513
G1 X136 Y70.373 E339.8832
G1 X137.6 Y70.373 E340.02369
G1 X137.6 Y149.616 E346.98176
G1 X139.2 Y149.615 E347.12225
G1 X139.2 Y70.374 E354.08015
G1 X140.8 Y70.374 E354.22064
G1 X140.8 Y149.614 E361.17844
G1 X142.4 Y149.614 E361.31894
G1 X142.4 Y70.374 E368.27674
G1 X144 Y70.375 E368.41723
G1 X144 Y149.613 E375.37487
G1 X145.6 Y149.613 E375.51536
G1 X145.6 Y70.375 E382.47299
G1 X147.2 Y70.375 E382.61348
G1 X147.2 Y149.612 E389.57102
G1 X148.8 Y149.612 E389.71151
G1 X148.8 Y70.376 E396.66897
G1 X150.4 Y70.376 E396.80946
G1 X150.4 Y149.611 E403.76683
G1 X152 Y149.611 E403.90732
G1 X152 Y70.402 E410.86241
G1 X152.785 Y70.448 E410.93145
G1 X153.6 Y70.582 E411.00398
G1 X153.6 Y149.443 E417.9285
G1 X154.058 Y149.355 E417.96946
G1 X155.2 Y149.048 E418.07329
G1 X155.2 Y70.952 E424.93065
G1 X155.592 Y71.063 E424.96642
G1 X156.8 Y71.564 E425.08125
G1 X156.8 Y148.452 E431.83254
G0 F7200 X156.804 Y148.45
G1 F1200 X158.226 Y147.678 E431.97461
G1 X158.4 Y147.553 E431.99343
G1 X158.4 Y72.456 E438.58745
G1 X158.753 Y72.673 E438.62383
G1 X159.891 Y73.574 E438.75129
G1 X160 Y73.684 E438.76488
G1 X160 Y146.314 E445.14229
G1 X160.927 Y145.39 E445.25721
G1 X161.827 Y144.253 E445.38454
G1 X162.6 Y143 E445.51382
G1 X162.847 Y142.518 E445.56137
G1 X163.2 Y141.665 E445.64243
G1 X163.2 Y78.332 E451.2035
G1 X162.844 Y77.472 E451.28523
G1 X162.174 Y76.269 E451.40614
G1 X161.6 Y75.473 E451.49231
G1 X161.6 Y144.54 E457.55686
;;retract;;
G1 F6000 E449.55686
G0 F7200 X56 Y118.542
G1 F6000 E457.55686
G1 F1200 X56 Y138.596 E459.31773
G1 X55.893 Y137.653 E459.40107
G1 X55.87 Y136.953 E459.46256
G1 X55.878 Y119.913 E460.95879
G1 X55.923 Y119.065 E461.03336
G1 X56.048 Y118.217 E461.10862
G1 X56.236 Y117.43 E461.17967
G1 X56.491 Y116.666 E461.25039
G1 X56.838 Y115.882 E461.32567
G1 X57.414 Y114.864 E461.42838
G1 X57.6 Y114.594 E461.45717
G1 X57.6 Y143.326 E463.98003
G1 X57.823 Y143.728 E464.0204
G1 X58.722 Y144.974 E464.15531
G1 X59.08 Y145.393 E464.2037
G1 X59.2 Y145.513 E464.2186
G1 X59.2 Y111.639 E467.19297
G1 X59.283 Y111.305 E467.22319
G1 X59.371 Y110.316 E467.31037
G1 X59.327 Y109.005 E467.42555
G1 X59.2 Y108.345 E467.48456
G1 X59.2 Y74.483 E470.45788
G1 X59.074 Y74.609 E470.47352
G1 X58.173 Y75.747 E470.60097
G1 X57.4 Y77 E470.73025
G1 X57.153 Y77.482 E470.77781
G1 X56.563 Y78.908 E470.91331
G1 X56.193 Y80.214 E471.0325
G1 X56 Y81.401 E471.1381
G1 X56 Y101.494 E472.9024
G1 X56.006 Y101.542 E472.90664
G1 X56.182 Y102.352 E472.97943
G1 X56.443 Y103.184 E473.05599
G1 X56.937 Y104.34 E473.16638
G1 X57.329 Y105.043 E473.23705
G1 X57.6 Y105.44 E473.27926
G1 X57.6 Y76.675 E475.80502
;;retract;;
G1 F6000 E467.80502
G0 F600 X57.6 Y76.675 Z0.47
G0 F7200 X58.509 Y110.279
G0 X57.247 Y143.514
;TIME_ELAPSED:280.677800

;LAYER:-3
;TYPE:SUPPORT
G1 F6000 E475.80502
G1 F1800 X61.982 Y148.249 E476.31728
G1 X61.004 Y147.646 E476.40517
G1 X59.846 Y146.728 E476.51821
G1 X58.782 Y145.66 E476.63354
G1 X58.41 Y145.225 E476.67733
G1 X57.483 Y143.939 E476.7986
G1 X56.791 Y142.694 E476.90756
G1 X56.204 Y141.272 E477.02524
G1 X56.101 Y140.953 E477.05089
G1 X64.536 Y149.389 E477.96348
G1 X65.618 Y149.696 E478.04952
G1 X66.381 Y149.819 E478.10864
G1 X55.654 Y139.092 E479.26914
G1 X55.493 Y137.674 E479.37831
G1 X55.487 Y137.511 E479.39079
G1 X67.972 Y149.996 E480.74148
G1 X68.412 Y150.024 E480.77521
G1 X69.413 Y150.023 E480.85178
G1 X55.469 Y136.079 E482.36031
G1 X55.47 Y134.666 E482.46841
G1 X70.827 Y150.023 E484.1298
G1 X72.242 Y150.024 E484.23805
G1 X55.471 Y133.252 E486.05247
G1 X55.471 Y131.839 E486.16056
G1 X73.656 Y150.024 E488.12791
G1 X75.071 Y150.024 E488.23615
G1 X55.472 Y130.425 E490.35647
G1 X55.473 Y129.012 E490.46456
G1 X76.485 Y150.024 E492.73774
G1 X77.9 Y150.025 E492.84599
G1 X55.473 Y127.598 E495.27225
G1 X55.474 Y126.185 E495.38034
G1 X79.314 Y150.025 E497.95947
G1 X80.729 Y150.026 E498.06772
G1 X55.475 Y124.771 E500.79988
G1 X55.476 Y123.358 E500.90797
G1 X82.143 Y150.026 E503.79299
G1 X83.558 Y150.026 E503.90123
G1 X55.476 Y121.944 E506.93928
G1 X55.477 Y120.531 E507.04738
G1 X84.973 Y150.026 E510.23835
G1 X86.387 Y150.027 E510.34651
G1 X55.517 Y119.156 E513.68624
G1 X55.525 Y119.017 E513.69689
G1 X55.654 Y118.146 E513.76425
G1 X55.705 Y117.93 E513.78122
G1 X87.802 Y150.027 E517.25364
G1 X89.217 Y150.028 E517.36188
G1 X56.015 Y116.826 E520.95384
G1 X56.121 Y116.513 E520.97912
G1 X56.424 Y115.821 E521.03691
G1 X90.631 Y150.028 E524.73759
G1 X92.046 Y150.028 E524.84583
G1 X56.927 Y114.91 E528.64513
G1 X57.074 Y114.653 E528.66778
G1 X57.486 Y114.054 E528.72339
G1 X93.46 Y150.028 E532.61524
G1 X94.273 Y150.03 E532.67743
G1 X94.874 Y150.028 E532.72341
G1 X58.083 Y113.237 E536.70364
G1 X58.153 Y113.145 E536.71248
G1 X58.477 Y112.543 E536.76478
G1 X58.566 Y112.306 E536.78415
G1 X96.288 Y150.028 E540.8651
G1 X97.702 Y150.028 E540.97327
G1 X58.888 Y111.214 E545.17236
G1 X58.97 Y110.305 E545.24218
G1 X58.955 Y109.866 E545.27578
G1 X99.115 Y150.027 E549.62054
G1 X100.529 Y150.026 E549.72871
G1 X58.758 Y108.255 E554.2477
G1 X58.586 Y107.73 E554.28997
G1 X58.294 Y107.113 E554.34218
G1 X57.929 Y106.543 E554.39396
G1 X57.479 Y105.975 E554.4494
G1 X56.988 Y105.254 E554.51613
G1 X56.76 Y104.843 E554.55208
G1 X101.943 Y150.026 E559.4402
G1 X103.357 Y150.026 E559.54837
G1 X55.797 Y102.466 E564.69365
G1 X55.795 Y102.458 E564.69428
G1 X55.611 Y101.609 E564.76073
G1 X55.508 Y100.79 E564.82388
G1 X55.506 Y100.761 E564.8261
G1 X104.77 Y150.025 E570.15572
G1 X106.184 Y150.025 E570.26389
G1 X55.471 Y99.311 E575.75033
G1 X55.471 Y97.897 E575.8585
G1 X107.598 Y150.024 E581.49786
G1 X109.011 Y150.024 E581.60595
G1 X55.471 Y96.484 E587.39817
G1 X55.472 Y95.07 E587.50634
G1 X110.426 Y150.024 E593.45153
G1 X111.839 Y150.023 E593.55963
G1 X55.472 Y93.656 E599.65769
G1 X55.473 Y92.242 E599.76586
G1 X113.253 Y150.022 E606.01678
G1 X114.667 Y150.022 E606.12495
G1 X55.473 Y90.828 E612.52885
G1 X55.473 Y89.415 E612.63694
G1 X116.08 Y150.021 E619.19365
G1 X117.494 Y150.021 E619.30182
G1 X55.473 Y88 E626.01156
G1 X55.474 Y86.587 E626.11965
G1 X118.908 Y150.021 E632.98226
G1 X120.321 Y150.02 E633.09035
G1 X55.475 Y85.173 E640.10576
G1 X55.475 Y83.759 E640.21393
G1 X121.735 Y150.019 E647.38227
G1 X123.149 Y150.019 E647.49044
G1 X55.507 Y82.377 E654.80828
G1 X55.55 Y81.674 E654.86216
G1 X55.643 Y81.099 E654.90672
G1 X124.563 Y150.019 E662.36283
G1 X125.976 Y150.018 E662.47092
G1 X55.864 Y79.905 E670.05604
G1 X56.176 Y78.803 E670.14365
G1 X127.39 Y150.017 E677.84793
G1 X128.804 Y150.017 E677.9561
G1 X56.586 Y77.8 E685.76895
G1 X56.787 Y77.32 E685.80876
G1 X57.034 Y76.833 E685.85053
G1 X130.217 Y150.016 E693.76783
G1 X131.631 Y150.016 E693.876
G1 X57.572 Y75.957 E701.88807
G1 X57.847 Y75.514 E701.92795
G1 X58.153 Y75.124 E701.96587
G1 X133.045 Y150.016 E710.06806
G1 X134.459 Y150.015 E710.17623
G1 X58.781 Y74.337 E718.36345
G1 X59.489 Y73.631 E718.43994
G1 X135.872 Y150.014 E726.70343
G1 X137.286 Y150.014 E726.8116
G1 X60.224 Y72.952 E735.14855
G1 X60.275 Y72.91 E735.1536
G1 X61.042 Y72.356 E735.22598
G1 X138.7 Y150.014 E743.62741
G1 X140.113 Y150.013 E743.7355
G1 X61.896 Y71.796 E752.1974
G1 X62.788 Y71.3 E752.27548
G1 X62.806 Y71.291 E752.27702
G1 X141.528 Y150.013 E760.79355
G1 X142.941 Y150.012 E760.90164
G1 X63.806 Y70.877 E769.46286
G1 X64.222 Y70.706 E769.49727
G1 X64.769 Y70.529 E769.54125
G1 X64.852 Y70.509 E769.54778
G1 X144.355 Y150.011 E778.14875
G1 X145.769 Y150.011 E778.25692
G1 X65.994 Y70.237 E786.88732
G1 X66.296 Y70.167 E786.91104
G1 X67.232 Y70.06 E786.98311
G1 X147.182 Y150.011 E795.63255
G1 X148.596 Y150.01 E795.74071
G1 X68.555 Y69.969 E804.39995
G1 X69.969 Y69.969 E804.50811
G1 X150.01 Y150.01 E813.16735
G1 X151.424 Y150.009 E813.27551
G1 X71.383 Y69.969 E821.93469
G1 X72.798 Y69.969 E822.04294
G1 X152.765 Y149.937 E830.69422
G1 X153.6 Y149.849 E830.75845
G1 X154.012 Y149.769 E830.79055
G1 X74.212 Y69.969 E839.42371
G1 X75.626 Y69.969 E839.53188
G1 X155.134 Y149.478 E848.1335
G1 X155.639 Y149.344 E848.17347
G1 X156.193 Y149.122 E848.21913
G1 X77.04 Y69.969 E856.78229
G1 X78.454 Y69.969 E856.89046
G1 X157.182 Y148.697 E865.40764
G1 X158.099 Y148.2 E865.48743
G1 X79.869 Y69.969 E873.9508
G1 X81.283 Y69.969 E874.05897
G1 X158.956 Y147.643 E882.46207
G1 X159.725 Y147.09 E882.53453
G1 X159.774 Y147.046 E882.53957
G1 X82.697 Y69.969 E890.87814
G1 X84.111 Y69.969 E890.98631
G1 X160.509 Y146.367 E899.25142
G1 X161.218 Y145.661 E899.32796
G1 X85.525 Y69.969 E907.51675
G1 X86.94 Y69.969 E907.625
G1 X161.845 Y144.874 E915.72859
G1 X162.153 Y144.486 E915.76649
G1 X162.426 Y144.041 E915.80642
G1 X88.354 Y69.969 E923.8199
G1 X89.768 Y69.969 E923.92807
G1 X162.964 Y143.165 E931.84677
G1 X163.213 Y142.68 E931.88848
G1 X163.412 Y142.199 E931.9283
G1 X91.182 Y69.969 E939.7425
G1 X92.597 Y69.969 E939.85074
G1 X163.823 Y141.195 E947.55632
G1 X164.135 Y140.094 E947.64386
G1 X94.011 Y69.969 E955.23028
G1 X95.425 Y69.969 E955.33845
G1 X164.355 Y138.899 E962.79564
G1 X164.45 Y138.326 E962.84007
G1 X164.491 Y137.621 E962.89409
G1 X96.839 Y69.969 E970.21302
G1 X98.253 Y69.969 E970.32119
G1 X164.523 Y136.239 E977.4906
G1 X164.523 Y134.825 E977.59877
G1 X99.668 Y69.969 E984.61516
G1 X101.082 Y69.969 E984.72333
G1 X164.523 Y133.411 E991.58675
